; generated by PrusaSlicer 2.5.0+MacOS-x64 on 2023-01-29 at 15:21:21 UTC


;
;

;
;
; 

; external perimeters extrusion width = 0.45mm
; perimeters extrusion width = 0.45mm
; infill extrusion width = 0.45mm
; solid infill extrusion width = 0.45mm
; top infill extrusion width = 0.40mm
; first layer extrusion width = 0.42mm

M73 P0 R6
M73 C4
M201 X2500 Y2500 Z400 E5000 ; sets maximum accelerations, mm/sec^2
M203 X180 Y180 Z12 E80 ; sets maximum feedrates, mm / sec
M204 P1250 R1250 T2500 ; sets acceleration (P, T) and retract acceleration (R), mm/sec^2
M205 X8.00 Y8.00 Z2.00 E10.00 ; sets the jerk limits, mm/sec
M205 S0 T0 ; sets the minimum extruding and travel feed rate, mm/sec
M107
;TYPE:Custom
M862.3 P "MINI" ; printer model check
G90 ; use absolute coordinates
M83 ; extruder relative mode
M104 S170 ; set extruder temp for bed leveling
M140 S60 ; set bed temp
M109 R170 ; wait for bed leveling temp
M190 S60 ; wait for bed temp
M204 T1250 ; set travel acceleration
G28 ; home all without mesh bed level
G29 ; mesh bed leveling 
M204 T2500 ; restore travel acceleration
M104 S215 ; set extruder temp
G92 E0
G1 Y-2 X179 F2400
G1 Z3 F720
M109 S215 ; wait for extruder temp

; intro line
M73 P1 R6
M73 C3
G1 X170 F1000
G1 Z0.2 F720
G1 X110 E8 F900
G1 X40 E10 F700
G92 E0

M221 S95 ; set flow
G21 ; set units to millimeters
G90 ; use absolute coordinates
M83 ; use relative distances for extrusion
M900 K0.2 ; Filament gcode LA 1.5
; ; Filament gcode LA 1.0
M107
;LAYER_CHANGE
;Z:0.2
;HEIGHT:0.2
;BEFORE_LAYER_CHANGE
G92 E0.0
;0.2


M73 P2 R6
G1 E-3.2 F4200
M73 P4 R6
G1 Z.2 F720
;AFTER_LAYER_CHANGE
;0.2
G1 Z.4
G1 X75.139 Y76.083 F9000
G1 Z.2 F720
G1 E3.2 F2400
M204 P800
;TYPE:Skirt/Brim
;WIDTH:0.42
G1 F1200
G1 X76.205 Y75.069 E.04612
G1 X77.5 Y74.746 E.04186
G1 X102.5 Y74.746 E.78386
G1 X103.917 Y75.139 E.04612
G1 X104.931 Y76.205 E.04612
G1 X105.254 Y77.5 E.04186
G1 X105.254 Y102.5 E.78386
G1 X104.861 Y103.917 E.04612
M73 P5 R6
G1 X103.795 Y104.931 E.04612
G1 X102.5 Y105.254 E.04186
G1 X77.5 Y105.254 E.78386
G1 X76.083 Y104.861 E.04612
G1 X75.069 Y103.795 E.04612
G1 X74.746 Y102.5 E.04186
G1 X74.746 Y77.5 E.78386
G1 X75.123 Y76.14 E.04424
M204 P1000
G1 X75.497 Y76.252 F9000
M204 P800
G1 F1200
G1 X75.515 Y76.193 E.00195
G1 X76.56 Y75.317 E.04278
G1 X77.5 Y75.123 E.03008
G1 X102.5 Y75.123 E.78386
G1 X103.807 Y75.515 E.04278
M73 P6 R5
G1 X104.683 Y76.56 E.04278
G1 X104.877 Y77.5 E.03008
G1 X104.877 Y102.5 E.78386
G1 X104.485 Y103.807 E.04278
G1 X103.44 Y104.683 E.04278
G1 X102.5 Y104.877 E.03008
G1 X77.5 Y104.877 E.78386
G1 X76.193 Y104.485 E.04278
G1 X75.317 Y103.44 E.04278
G1 X75.123 Y102.5 E.03008
G1 X75.123 Y77.5 E.78386
G1 X75.479 Y76.31 E.03895
M204 P1000
; printing object QR Code.stl id:0 copy 0
M73 P7 R5
G1 E-2.24 F4200
;WIPE_START
G1 F7200
G1 X75.515 Y76.193 E-.06768
G1 X76.56 Y75.317 E-.75612
G1 X76.716 Y75.284 E-.0882
;WIPE_END
G1 E-.048 F4200
G1 Z.4 F720
G1 X101.713 Y101.713 F9000
G1 Z.2 F720
G1 E3.2 F2400
M204 P800
;TYPE:Perimeter
;WIDTH:0.419999
G1 F1200
G1 X78.287 Y101.713 E.7345
G1 X78.287 Y78.287 E.7345
G1 X101.713 Y78.287 E.7345
M73 P8 R5
G1 X101.713 Y101.653 E.73262
M204 P1000
G1 X102.09 Y102.09 F9000
M204 P800
;TYPE:External perimeter
G1 F1200
G1 X77.91 Y102.09 E.75815
G1 X77.91 Y77.91 E.75815
M73 P9 R5
G1 X102.09 Y77.91 E.75815
G1 X102.09 Y102.03 E.75626
M204 P1000
G1 X101.704 Y101.986 F9000
M73 P10 R5
G1 E-2.24 F4200
;WIPE_START
G1 F7200
G1 X100.444 Y102.034 E-.912
;WIPE_END
G1 E-.048 F4200
G1 Z.4 F720
G1 X100.836 Y78.4 F9000
G1 Z.2 F720
G1 E3.2 F2400
M204 P800
;TYPE:Solid infill
;WIDTH:0.42065
G1 F1200
G1 X101.43 Y78.994 E.02638
G1 X101.43 Y79.528 E.01678
G1 X100.472 Y78.57 E.04257
G1 X99.937 Y78.57 E.01678
G1 X101.43 Y80.063 E.0663
G1 X101.43 Y80.597 E.01678
G1 X99.403 Y78.57 E.09003
G1 X98.869 Y78.57 E.01678
G1 X101.43 Y81.131 E.11376
G1 X101.43 Y81.665 E.01678
G1 X98.335 Y78.57 E.13748
G1 X97.801 Y78.57 E.01678
G1 X101.43 Y82.199 E.16121
G1 X101.43 Y82.733 E.01678
G1 X97.267 Y78.57 E.18494
G1 X96.732 Y78.57 E.01678
G1 X101.43 Y83.268 E.20867
G1 X101.43 Y83.802 E.01678
G1 X96.198 Y78.57 E.2324
G1 X95.664 Y78.57 E.01678
G1 X101.43 Y84.336 E.25612
G1 X101.43 Y84.87 E.01678
G1 X95.13 Y78.57 E.27985
G1 X94.596 Y78.57 E.01678
M73 P11 R5
G1 X101.43 Y85.404 E.30358
G1 X101.43 Y85.939 E.01678
G1 X94.061 Y78.57 E.32731
G1 X93.527 Y78.57 E.01678
G1 X101.43 Y86.473 E.35103
G1 X101.43 Y87.007 E.01678
G1 X92.993 Y78.57 E.37476
G1 X92.459 Y78.57 E.01678
G1 X101.43 Y87.541 E.39849
G1 X101.43 Y88.075 E.01678
G1 X91.925 Y78.57 E.42222
G1 X91.39 Y78.57 E.01678
G1 X101.43 Y88.61 E.44595
G1 X101.43 Y89.144 E.01678
M73 P12 R5
G1 X90.856 Y78.57 E.46967
G1 X90.322 Y78.57 E.01678
G1 X101.43 Y89.678 E.4934
G1 X101.43 Y90.212 E.01678
G1 X89.788 Y78.57 E.51713
G1 X89.254 Y78.57 E.01678
G1 X101.43 Y90.746 E.54086
G1 X101.43 Y91.281 E.01678
M73 P13 R5
G1 X88.719 Y78.57 E.56458
G1 X88.185 Y78.57 E.01678
G1 X101.43 Y91.815 E.58831
G1 X101.43 Y92.349 E.01678
G1 X87.651 Y78.57 E.61204
G1 X87.117 Y78.57 E.01678
G1 X101.43 Y92.883 E.63577
G1 X101.43 Y93.417 E.01678
M73 P14 R5
G1 X86.583 Y78.57 E.6595
G1 X86.049 Y78.57 E.01678
G1 X101.43 Y93.952 E.68322
G1 X101.43 Y94.486 E.01678
G1 X85.514 Y78.57 E.70695
G1 X84.98 Y78.57 E.01678
G1 X101.43 Y95.02 E.73068
G1 X101.43 Y95.554 E.01678
M73 P15 R5
G1 X84.446 Y78.57 E.75441
G1 X83.912 Y78.57 E.01678
G1 X101.43 Y96.088 E.77813
G1 X101.43 Y96.622 E.01678
M73 C2
G1 X83.378 Y78.57 E.80186
G1 X82.843 Y78.57 E.01678
M73 P16 R5
G1 X101.43 Y97.157 E.82559
G1 X101.43 Y97.691 E.01678
G1 X82.309 Y78.57 E.84932
G1 X81.775 Y78.57 E.01678
M73 P17 R5
G1 X101.43 Y98.225 E.87305
G1 X101.43 Y98.759 E.01678
G1 X81.241 Y78.57 E.89677
G1 X80.707 Y78.57 E.01678
G1 X101.43 Y99.293 E.9205
G1 X101.43 Y99.828 E.01678
M73 P18 R5
G1 X80.172 Y78.57 E.94423
G1 X79.638 Y78.57 E.01678
G1 X101.43 Y100.362 E.96796
G1 X101.43 Y100.896 E.01678
G1 X79.104 Y78.57 E.99168
M73 P19 R5
G1 X78.57 Y78.57 E.01678
G1 X101.43 Y101.43 E1.01541
G1 X100.896 Y101.43 E.01678
G1 X78.57 Y79.104 E.99168
G1 X78.57 Y79.638 E.01678
M73 P20 R5
G1 X100.362 Y101.43 E.96795
G1 X99.828 Y101.43 E.01678
G1 X78.57 Y80.172 E.94422
G1 X78.57 Y80.707 E.01678
M73 P21 R5
G1 X99.293 Y101.43 E.9205
G1 X98.759 Y101.43 E.01678
G1 X78.57 Y81.241 E.89677
G1 X78.57 Y81.775 E.01678
M73 P21 R4
G1 X98.225 Y101.43 E.87304
G1 X97.691 Y101.43 E.01678
M73 P22 R4
G1 X78.57 Y82.309 E.84931
G1 X78.57 Y82.843 E.01678
G1 X97.157 Y101.43 E.82559
G1 X96.622 Y101.43 E.01678
G1 X78.57 Y83.378 E.80186
G1 X78.57 Y83.912 E.01678
M73 P23 R4
G1 X96.088 Y101.43 E.77813
G1 X95.554 Y101.43 E.01678
G1 X78.57 Y84.446 E.7544
G1 X78.57 Y84.98 E.01678
G1 X95.02 Y101.43 E.73067
G1 X94.486 Y101.43 E.01678
M73 P24 R4
G1 X78.57 Y85.514 E.70695
G1 X78.57 Y86.049 E.01678
G1 X93.951 Y101.43 E.68322
G1 X93.417 Y101.43 E.01678
G1 X78.57 Y86.583 E.65949
G1 X78.57 Y87.117 E.01678
M73 P25 R4
G1 X92.883 Y101.43 E.63576
G1 X92.349 Y101.43 E.01678
G1 X78.57 Y87.651 E.61204
G1 X78.57 Y88.185 E.01678
G1 X91.815 Y101.43 E.58831
G1 X91.28 Y101.43 E.01678
G1 X78.57 Y88.72 E.56458
G1 X78.57 Y89.254 E.01678
M73 P26 R4
G1 X90.746 Y101.43 E.54085
G1 X90.212 Y101.43 E.01678
G1 X78.57 Y89.788 E.51712
G1 X78.57 Y90.322 E.01678
G1 X89.678 Y101.43 E.4934
G1 X89.144 Y101.43 E.01678
G1 X78.57 Y90.856 E.46967
G1 X78.57 Y91.391 E.01678
M73 P27 R4
G1 X88.609 Y101.43 E.44594
G1 X88.075 Y101.43 E.01678
G1 X78.57 Y91.925 E.42221
G1 X78.57 Y92.459 E.01678
G1 X87.541 Y101.43 E.39849
G1 X87.007 Y101.43 E.01678
G1 X78.57 Y92.993 E.37476
G1 X78.57 Y93.527 E.01678
G1 X86.473 Y101.43 E.35103
G1 X85.939 Y101.43 E.01678
G1 X78.57 Y94.061 E.3273
G1 X78.57 Y94.596 E.01678
M73 P28 R4
G1 X85.404 Y101.43 E.30357
G1 X84.87 Y101.43 E.01678
G1 X78.57 Y95.13 E.27985
G1 X78.57 Y95.664 E.01678
G1 X84.336 Y101.43 E.25612
G1 X83.802 Y101.43 E.01678
G1 X78.57 Y96.198 E.23239
G1 X78.57 Y96.732 E.01678
G1 X83.268 Y101.43 E.20866
G1 X82.733 Y101.43 E.01678
G1 X78.57 Y97.267 E.18494
G1 X78.57 Y97.801 E.01678
G1 X82.199 Y101.43 E.16121
G1 X81.665 Y101.43 E.01678
G1 X78.57 Y98.335 E.13748
G1 X78.57 Y98.869 E.01678
G1 X81.131 Y101.43 E.11375
G1 X80.597 Y101.43 E.01678
M73 P29 R4
G1 X78.57 Y99.403 E.09002
G1 X78.57 Y99.938 E.01678
G1 X80.062 Y101.43 E.0663
G1 X79.528 Y101.43 E.01678
G1 X78.57 Y100.472 E.04257
G1 X78.57 Y101.006 E.01678
G1 X79.164 Y101.6 E.02638
M204 P1000
; stop printing object QR Code.stl id:0 copy 0
M106 S84.15
;LAYER_CHANGE
;Z:0.4
;HEIGHT:0.2
;BEFORE_LAYER_CHANGE
G92 E0.0
;0.4


G1 E-2.24 F4200
;WIPE_START
G1 F7200
G1 X78.57 Y101.006 E-.46542
G1 X78.57 Y100.472 E-.29603
G1 X78.762 Y100.664 E-.15055
;WIPE_END
G1 E-.048 F4200
G1 Z.4 F720
;AFTER_LAYER_CHANGE
;0.4
G1 Z.6
G1 X74.746 Y100.664 F9000
G1 Z.4 F720
G1 E3.2 F2400
;TYPE:Skirt/Brim
;WIDTH:0.42
G1 X74.746 Y77.5 E.72629
G1 X75.139 Y76.083 E.04612
G1 X76.205 Y75.069 E.04612
G1 X77.5 Y74.746 E.04186
G1 X102.5 Y74.746 E.78386
G1 X103.917 Y75.139 E.04612
G1 X104.931 Y76.205 E.04612
G1 X105.254 Y77.5 E.04186
G1 X105.254 Y102.5 E.78386
G1 X104.861 Y103.917 E.04612
G1 X103.795 Y104.931 E.04612
G1 X102.5 Y105.254 E.04186
G1 X77.5 Y105.254 E.78386
G1 X76.083 Y104.861 E.04612
M73 P30 R4
G1 X75.069 Y103.795 E.04612
G1 X74.746 Y102.5 E.04186
G1 X74.746 Y100.724 E.05569
G1 X75.123 Y100.724 F9000
G1 F2400
G1 X75.123 Y77.5 E.72817
G1 X75.515 Y76.193 E.04278
G1 X76.56 Y75.317 E.04278
G1 X77.5 Y75.123 E.03008
G1 X102.5 Y75.123 E.78386
G1 X103.807 Y75.515 E.04278
G1 X104.683 Y76.56 E.04278
G1 X104.877 Y77.5 E.03008
G1 X104.877 Y102.5 E.78386
G1 X104.485 Y103.807 E.04278
G1 X103.44 Y104.683 E.04278
G1 X102.5 Y104.877 E.03008
G1 X77.5 Y104.877 E.78386
G1 X76.193 Y104.485 E.04278
G1 X75.317 Y103.44 E.04278
G1 X75.123 Y102.5 E.03008
G1 X75.123 Y100.784 E.05381
; printing object QR Code.stl id:0 copy 0
G1 E-2.24 F4200
;WIPE_START
G1 F7200
G1 X75.123 Y99.138 E-.912
;WIPE_END
G1 E-.048 F4200
G1 Z.6 F720
G1 X101.868 Y101.868 F9000
G1 Z.4 F720
G1 E3.2 F2400
M204 P800
;TYPE:Perimeter
;WIDTH:0.449999
G1 X78.132 Y101.868 E.80343
G1 X78.132 Y78.132 E.80343
M73 P31 R4
G1 X101.868 Y78.132 E.80343
G1 X101.868 Y101.808 E.8014
M204 P1000
G1 X102.275 Y102.275 F9000
M204 P800
;TYPE:External perimeter
G1 F1800
G1 X77.725 Y102.275 E.83099
G1 X77.725 Y77.725 E.83099
M73 C1
G1 X102.275 Y77.725 E.83099
M73 P32 R4
G1 X102.275 Y102.215 E.82896
M204 P1000
G1 X101.889 Y102.171 F9000
G1 X101.746 Y100.915
;TYPE:Solid infill
;WIDTH:0.45378
G1 F4800
G1 X101.098 Y101.563 E.0313
G1 X100.517 Y101.563 E.01985
G1 X101.563 Y100.517 E.05052
G1 X101.563 Y99.936 E.01985
G1 X99.936 Y101.563 E.07859
G1 X99.355 Y101.563 E.01985
G1 X101.563 Y99.355 E.10666
G1 X101.563 Y98.774 E.01985
G1 X98.774 Y101.563 E.13473
G1 X98.193 Y101.563 E.01985
G1 X101.563 Y98.193 E.16281
G1 X101.563 Y97.612 E.01985
G1 X97.612 Y101.563 E.19088
G1 X97.031 Y101.563 E.01985
G1 X101.563 Y97.031 E.21895
G1 X101.563 Y96.45 E.01985
G1 X96.45 Y101.563 E.24702
G1 X95.869 Y101.563 E.01985
G1 X101.563 Y95.869 E.2751
G1 X101.563 Y95.288 E.01985
G1 X95.288 Y101.563 E.30317
G1 X94.707 Y101.563 E.01985
G1 X101.563 Y94.707 E.33124
G1 X101.563 Y94.126 E.01985
M73 P33 R4
G1 X94.126 Y101.563 E.35932
G1 X93.544 Y101.563 E.01985
G1 X101.563 Y93.544 E.38739
G1 X101.563 Y92.963 E.01985
G1 X92.963 Y101.563 E.41546
G1 X92.382 Y101.563 E.01985
G1 X101.563 Y92.382 E.44353
G1 X101.563 Y91.801 E.01985
G1 X91.801 Y101.563 E.47161
G1 X91.22 Y101.563 E.01985
G1 X101.563 Y91.22 E.49968
G1 X101.563 Y90.639 E.01985
G1 X90.639 Y101.563 E.52775
G1 X90.058 Y101.563 E.01985
G1 X101.563 Y90.058 E.55582
G1 X101.563 Y89.477 E.01985
G1 X89.477 Y101.563 E.5839
G1 X88.896 Y101.563 E.01985
G1 X101.563 Y88.896 E.61197
G1 X101.563 Y88.315 E.01985
G1 X88.315 Y101.563 E.64004
G1 X87.734 Y101.563 E.01985
G1 X101.563 Y87.734 E.66811
G1 X101.563 Y87.153 E.01985
G1 X87.153 Y101.563 E.69619
G1 X86.572 Y101.563 E.01985
G1 X101.563 Y86.572 E.72426
M73 P34 R4
G1 X101.563 Y85.991 E.01985
G1 X85.991 Y101.563 E.75233
G1 X85.41 Y101.563 E.01985
G1 X101.563 Y85.41 E.7804
G1 X101.563 Y84.829 E.01985
G1 X84.829 Y101.563 E.80848
G1 X84.248 Y101.563 E.01985
G1 X101.563 Y84.248 E.83655
G1 X101.563 Y83.667 E.01985
G1 X83.667 Y101.563 E.86462
G1 X83.086 Y101.563 E.01985
G1 X101.563 Y83.086 E.89269
G1 X101.563 Y82.505 E.01985
G1 X82.505 Y101.563 E.92077
G1 X81.924 Y101.563 E.01985
G1 X101.563 Y81.924 E.94884
G1 X101.563 Y81.343 E.01985
G1 X81.343 Y101.563 E.97691
G1 X80.762 Y101.563 E.01985
M73 P35 R4
G1 X101.563 Y80.762 E1.00498
G1 X101.563 Y80.18 E.01985
G1 X80.18 Y101.563 E1.03306
G1 X79.599 Y101.563 E.01985
G1 X101.563 Y79.599 E1.06113
G1 X101.563 Y79.018 E.01985
G1 X79.018 Y101.563 E1.0892
G1 X78.437 Y101.563 E.01985
G1 X101.563 Y78.437 E1.11727
G1 X100.982 Y78.437 E.01985
G1 X78.437 Y100.982 E1.0892
G1 X78.437 Y100.4 E.01985
G1 X100.4 Y78.437 E1.06112
G1 X99.819 Y78.437 E.01985
G1 X78.437 Y99.819 E1.03305
G1 X78.437 Y99.238 E.01985
M73 P36 R4
G1 X99.238 Y78.437 E1.00498
G1 X98.657 Y78.437 E.01985
G1 X78.437 Y98.657 E.97691
G1 X78.437 Y98.076 E.01985
G1 X98.076 Y78.437 E.94883
G1 X97.495 Y78.437 E.01985
G1 X78.437 Y97.495 E.92076
G1 X78.437 Y96.914 E.01985
G1 X96.914 Y78.437 E.89269
G1 X96.333 Y78.437 E.01985
G1 X78.437 Y96.333 E.86462
G1 X78.437 Y95.752 E.01985
G1 X95.752 Y78.437 E.83654
G1 X95.171 Y78.437 E.01985
G1 X78.437 Y95.171 E.80847
G1 X78.437 Y94.59 E.01985
G1 X94.59 Y78.437 E.7804
G1 X94.009 Y78.437 E.01985
M73 P37 R4
G1 X78.437 Y94.009 E.75233
G1 X78.437 Y93.428 E.01985
G1 X93.428 Y78.437 E.72425
G1 X92.847 Y78.437 E.01985
G1 X78.437 Y92.847 E.69618
G1 X78.437 Y92.266 E.01985
M73 P37 R3
G1 X92.266 Y78.437 E.66811
G1 X91.685 Y78.437 E.01985
G1 X78.437 Y91.685 E.64004
G1 X78.437 Y91.104 E.01985
G1 X91.104 Y78.437 E.61196
G1 X90.523 Y78.437 E.01985
G1 X78.437 Y90.523 E.58389
G1 X78.437 Y89.942 E.01985
G1 X89.942 Y78.437 E.55582
G1 X89.361 Y78.437 E.01985
G1 X78.437 Y89.361 E.52775
G1 X78.437 Y88.78 E.01985
G1 X88.78 Y78.437 E.49967
G1 X88.199 Y78.437 E.01985
G1 X78.437 Y88.199 E.4716
G1 X78.437 Y87.618 E.01985
G1 X87.618 Y78.437 E.44353
G1 X87.036 Y78.437 E.01985
M73 P38 R3
G1 X78.437 Y87.036 E.41546
G1 X78.437 Y86.455 E.01985
G1 X86.455 Y78.437 E.38738
G1 X85.874 Y78.437 E.01985
G1 X78.437 Y85.874 E.35931
G1 X78.437 Y85.293 E.01985
G1 X85.293 Y78.437 E.33124
G1 X84.712 Y78.437 E.01985
G1 X78.437 Y84.712 E.30317
G1 X78.437 Y84.131 E.01985
G1 X84.131 Y78.437 E.27509
G1 X83.55 Y78.437 E.01985
G1 X78.437 Y83.55 E.24702
G1 X78.437 Y82.969 E.01985
G1 X82.969 Y78.437 E.21895
G1 X82.388 Y78.437 E.01985
G1 X78.437 Y82.388 E.19088
G1 X78.437 Y81.807 E.01985
G1 X81.807 Y78.437 E.1628
G1 X81.226 Y78.437 E.01985
G1 X78.437 Y81.226 E.13473
G1 X78.437 Y80.645 E.01985
G1 X80.645 Y78.437 E.10666
G1 X80.064 Y78.437 E.01985
G1 X78.437 Y80.064 E.07859
G1 X78.437 Y79.483 E.01985
G1 X79.483 Y78.437 E.05051
G1 X78.902 Y78.437 E.01985
G1 X78.254 Y79.085 E.03129
; stop printing object QR Code.stl id:0 copy 0
M106 S170.85
;LAYER_CHANGE
;Z:0.6
;HEIGHT:0.2
;BEFORE_LAYER_CHANGE
G92 E0.0
;0.6


G1 E-2.24 F4200
;WIPE_START
G1 F7200
G1 X78.902 Y78.437 E-.50758
G1 X79.483 Y78.437 E-.32199
G1 X79.378 Y78.543 E-.08242
;WIPE_END
G1 E-.048 F4200
G1 Z.6 F720
;AFTER_LAYER_CHANGE
;0.6
G1 Z.8
G1 X79.378 Y74.746 F9000
G1 Z.6 F720
G1 E3.2 F2400
;TYPE:Skirt/Brim
;WIDTH:0.42
G1 X102.5 Y74.746 E.72498
G1 X103.917 Y75.139 E.04612
G1 X104.931 Y76.205 E.04612
G1 X105.254 Y77.5 E.04186
G1 X105.254 Y102.5 E.78386
M73 P39 R3
G1 X104.861 Y103.917 E.04612
G1 X103.795 Y104.931 E.04612
G1 X102.5 Y105.254 E.04186
G1 X77.5 Y105.254 E.78386
G1 X76.083 Y104.861 E.04612
G1 X75.069 Y103.795 E.04612
G1 X74.746 Y102.5 E.04186
G1 X74.746 Y77.5 E.78386
G1 X75.139 Y76.083 E.04612
G1 X76.205 Y75.069 E.04612
G1 X77.5 Y74.746 E.04186
G1 X79.318 Y74.746 E.05699
G1 X79.318 Y75.123 F9000
G1 F2400
G1 X102.5 Y75.123 E.72686
G1 X103.807 Y75.515 E.04278
G1 X104.683 Y76.56 E.04278
G1 X104.877 Y77.5 E.03008
G1 X104.877 Y102.5 E.78386
G1 X104.485 Y103.807 E.04278
G1 X103.44 Y104.683 E.04278
G1 X102.5 Y104.877 E.03008
G1 X77.5 Y104.877 E.78386
M73 P40 R3
G1 X76.193 Y104.485 E.04278
G1 X75.317 Y103.44 E.04278
G1 X75.123 Y102.5 E.03008
G1 X75.123 Y77.5 E.78386
G1 X75.515 Y76.193 E.04278
