; generated by PrusaSlicer 2.5.0+MacOS-x64 on 2023-01-29 at 15:44:48 UTC


;
;

;
;
; 

; external perimeters extrusion width = 0.45mm
; perimeters extrusion width = 0.45mm
; infill extrusion width = 0.45mm
; solid infill extrusion width = 0.45mm
; top infill extrusion width = 0.40mm
; support material extrusion width = 0.35mm
; first layer extrusion width = 0.42mm

M73 P0 R87
M201 X2500 Y2500 Z400 E5000 ; sets maximum accelerations, mm/sec^2
M203 X180 Y180 Z12 E80 ; sets maximum feedrates, mm / sec
M204 P1250 R1250 T2500 ; sets acceleration (P, T) and retract acceleration (R), mm/sec^2
M205 X8.00 Y8.00 Z2.00 E10.00 ; sets the jerk limits, mm/sec
M205 S0 T0 ; sets the minimum extruding and travel feed rate, mm/sec
M107
;TYPE:Custom
M862.3 P "MINI" ; printer model check
G90 ; use absolute coordinates
M83 ; extruder relative mode
M104 S170 ; set extruder temp for bed leveling
M140 S60 ; set bed temp
M109 R170 ; wait for bed leveling temp
M190 S60 ; wait for bed temp
M204 T1250 ; set travel acceleration
G28 ; home all without mesh bed level
G29 ; mesh bed leveling 
M204 T2500 ; restore travel acceleration
M104 S215 ; set extruder temp
G92 E0
G1 Y-2 X179 F2400
G1 Z3 F720
M109 S215 ; wait for extruder temp

; intro line
G1 X170 F1000
G1 Z0.2 F720
G1 X110 E8 F900
G1 X40 E10 F700
G92 E0

M221 S95 ; set flow
G21 ; set units to millimeters
G90 ; use absolute coordinates
M83 ; use relative distances for extrusion
M900 K0.2 ; Filament gcode LA 1.5
; ; Filament gcode LA 1.0
M107
;LAYER_CHANGE
;Z:0.2
;HEIGHT:0.2
;BEFORE_LAYER_CHANGE
G92 E0.0
;0.2


G1 E-3.2 F4200
M73 P0 R86
G1 Z.2 F720
;AFTER_LAYER_CHANGE
;0.2
G1 Z.4
G1 X64.307 Y51.143 F9000
G1 Z.2 F720
G1 E3.2 F2400
M204 P800
;TYPE:Skirt/Brim
;WIDTH:0.42
G1 F1200
G1 X65.353 Y50.267 E.04278
G1 X66.293 Y50.073 E.03008
G1 X113.707 Y50.073 E1.48664
G1 X115.014 Y50.465 E.04278
G1 X115.891 Y51.511 E.04278
G1 X116.084 Y52.45 E.03008
G1 X116.084 Y127.55 E2.35469
G1 X115.693 Y128.857 E.04278
G1 X114.647 Y129.733 E.04278
G1 X113.707 Y129.927 E.03008
G1 X66.293 Y129.927 E1.48664
G1 X64.986 Y129.535 E.04278
G1 X64.109 Y128.489 E.04278
G1 X63.916 Y127.55 E.03008
G1 X63.916 Y52.45 E2.35469
G1 X64.29 Y51.201 E.0409
M204 P1000
; printing object Backplate id:0 copy 0
G1 E-2.24 F4200
;WIPE_START
G1 F7200
G1 X65.353 Y50.267 E-.78411
G1 X65.579 Y50.22 E-.12789
;WIPE_END
G1 E-.048 F4200
G1 Z.4 F720
G1 X72.021 Y54.87 F9000
G1 Z.2 F720
G1 E3.2 F2400
M204 P800
;TYPE:Support material
G1 F1200
G1 X69.698 Y54.878 E.07283
G1 X69.484 Y54.916 E.00683
G1 X69.221 Y55.01 E.00873
G1 X69.022 Y55.123 E.00719
G1 X68.851 Y55.258 E.00683
G1 X68.701 Y55.417 E.00683
G1 X68.547 Y55.648 E.00873
G1 X68.454 Y55.858 E.0072
G1 X68.387 Y56.128 E.00873
G1 X68.37 Y56.347 E.00688
G1 X68.37 Y58.197 E.05801
G1 X66.293 Y57.705 E.06693
G1 X66.293 Y52.45 E.16475
G1 X71.383 Y52.45 E.15959
G1 X72.006 Y54.815 E.07668
M204 P1000
G1 X71.565 Y54.7 F9000
M204 P800
G1 F1200
G1 X71.565 Y54.473 E.00712
G1 X71.146 Y52.883 E.05155
G1 X71.146 Y54.531 E.05165
G1 X70.727 Y54.531 E.01314
G1 X70.727 Y52.79 E.05459
G1 X70.308 Y52.79 E.01314
G1 X70.308 Y54.531 E.05459
G1 X69.889 Y54.531 E.01314
G1 X69.889 Y52.79 E.05459
G1 X69.47 Y52.79 E.01314
G1 X69.47 Y54.571 E.05585
G1 X69.245 Y54.634 E.00732
G1 X69.051 Y54.716 E.0066
G1 X69.051 Y52.79 E.06038
G1 X68.632 Y52.79 E.01314
G1 X68.632 Y54.998 E.06925
G1 X68.394 Y55.259 E.01108
G1 X68.213 Y55.556 E.01089
G1 X68.213 Y52.79 E.08673
G1 X67.794 Y52.79 E.01314
G1 X67.794 Y57.712 E.15433
G1 X67.375 Y57.613 E.0135
G1 X67.375 Y52.79 E.15122
G1 X66.956 Y52.79 E.01314
G1 X66.956 Y57.688 E.15357
M204 P1000
G1 E-2.24 F4200
;WIPE_START
G1 F7200
G1 X66.956 Y56.042 E-.912
;WIPE_END
G1 E-.048 F4200
G1 Z.4 F720
G1 X73.173 Y57.687 F9000
G1 Z.2 F720
G1 E3.2 F2400
M204 P800
G1 F1200
G1 X73.628 Y57.767 E.01448
G1 X74.058 Y57.936 E.01449
G1 X74.446 Y58.186 E.01449
G1 X74.777 Y58.509 E.01448
G1 X74.98 Y58.79 E.01087
G1 X75.18 Y59.207 E.01448
G1 X75.294 Y59.654 E.01448
G1 X75.317 Y60.116 E.01448
G1 X75.248 Y60.572 E.01449
G1 X75.09 Y61.007 E.01448
G1 X74.849 Y61.401 E.01448
G1 X74.535 Y61.739 E.01449
G1 X74.16 Y62.009 E.01448
G1 X73.739 Y62.199 E.01448
G1 X73.288 Y62.302 E.01449
G1 X72.827 Y62.313 E.01448
G1 X72.484 Y62.262 E.01087
G1 X72.046 Y62.115 E.01449
G1 X71.646 Y61.884 E.01448
G1 X71.299 Y61.578 E.01449
G1 X71.02 Y61.21 E.01448
G1 X70.82 Y60.793 E.01449
G1 X70.706 Y60.346 E.01449
G1 X70.683 Y59.884 E.01448
G1 X70.752 Y59.428 E.01449
G1 X70.91 Y58.994 E.01448
G1 X71.151 Y58.599 E.01449
G1 X71.465 Y58.261 E.01448
G1 X71.84 Y57.991 E.01448
G1 X72.261 Y57.801 E.01448
G1 X72.712 Y57.698 E.01448
G1 X73.117 Y57.684 E.01272
M204 P1000
G1 X74.917 Y60.973 F9000
M204 P800
G1 F1200
G1 X74.917 Y59.503 E.04607
G1 X74.825 Y59.231 E.00901
G1 X74.739 Y59.053 E.00619
G1 X74.498 Y58.705 E.01327
G1 X74.498 Y61.295 E.08119
G1 X74.31 Y61.485 E.00837
G1 X74.079 Y61.661 E.00911
G1 X74.079 Y58.339 E.10413
G1 X73.903 Y58.238 E.00636
G1 X73.66 Y58.133 E.00831
G1 X73.66 Y61.867 E.11705
G1 X73.241 Y61.966 E.0135
G1 X73.241 Y58.034 E.12326
G1 X72.951 Y58.02 E.00911
G1 X72.822 Y58.028 E.00404
G1 X72.822 Y61.972 E.12365
G1 X72.403 Y61.888 E.0134
G1 X72.403 Y58.112 E.11837
G1 X72.185 Y58.195 E.00729
G1 X71.984 Y58.301 E.00714
G1 X71.984 Y61.699 E.10656
G1 X71.765 Y61.548 E.00833
G1 X71.565 Y61.364 E.00853
G1 X71.565 Y58.636 E.08554
G1 X71.31 Y58.967 E.01311
G1 X71.146 Y59.305 E.01177
G1 X71.146 Y61.088 E.0559
M204 P1000
G1 E-2.24 F4200
;WIPE_START
G1 F7200
G1 X71.146 Y59.442 E-.912
;WIPE_END
G1 E-.048 F4200
G1 Z.4 F720
G1 X95.52 Y79.52 F9000
G1 Z.2 F720
G1 E3.2 F2400
M204 P800
G1 F1200
G1 X84.48 Y79.52 E.34615
G1 X84.48 Y61.48 E.56563
G1 X95.52 Y61.48 E.34615
G1 X95.52 Y79.463 E.56386
M204 P1000
G1 X95.028 Y79.35 F9000
M204 P800
G1 F1200
G1 X95.028 Y61.819 E.54967
G1 X94.609 Y61.819 E.01314
G1 X94.609 Y79.181 E.54435
G1 X94.19 Y79.181 E.01314
G1 X94.19 Y61.819 E.54435
G1 X93.771 Y61.819 E.01314
G1 X93.771 Y79.181 E.54435
G1 X93.352 Y79.181 E.01314
G1 X93.352 Y61.819 E.54435
G1 X92.933 Y61.819 E.01314
G1 X92.933 Y79.181 E.54435
G1 X92.514 Y79.181 E.01314
G1 X92.514 Y61.819 E.54435
G1 X92.095 Y61.819 E.01314
G1 X92.095 Y79.181 E.54435
G1 X91.676 Y79.181 E.01314
G1 X91.676 Y61.819 E.54435
G1 X91.257 Y61.819 E.01314
G1 X91.257 Y79.181 E.54435
G1 X90.838 Y79.181 E.01314
G1 X90.838 Y61.819 E.54435
G1 X90.419 Y61.819 E.01314
G1 X90.419 Y79.181 E.54435
G1 X90 Y79.181 E.01314
G1 X90 Y61.819 E.54435
G1 X89.581 Y61.819 E.01314
G1 X89.581 Y79.181 E.54435
G1 X89.162 Y79.181 E.01314
G1 X89.162 Y61.819 E.54435
G1 X88.743 Y61.819 E.01314
M73 P1 R86
G1 X88.743 Y79.181 E.54435
G1 X88.324 Y79.181 E.01314
G1 X88.324 Y61.819 E.54435
G1 X87.905 Y61.819 E.01314
G1 X87.905 Y79.181 E.54435
G1 X87.486 Y79.181 E.01314
G1 X87.486 Y61.819 E.54435
G1 X87.067 Y61.819 E.01314
G1 X87.067 Y79.181 E.54435
G1 X86.648 Y79.181 E.01314
G1 X86.648 Y61.819 E.54435
G1 X86.229 Y61.819 E.01314
G1 X86.229 Y79.181 E.54435
G1 X85.81 Y79.181 E.01314
G1 X85.81 Y61.819 E.54435
G1 X85.391 Y61.819 E.01314
G1 X85.391 Y79.181 E.54435
G1 X84.972 Y79.181 E.01314
G1 X84.972 Y61.65 E.54967
M204 P1000
G1 E-2.24 F4200
;WIPE_START
G1 F7200
G1 X84.972 Y63.295 E-.912
;WIPE_END
G1 E-.048 F4200
G1 Z.4 F720
G1 X107.173 Y57.687 F9000
G1 Z.2 F720
G1 E3.2 F2400
M204 P800
G1 F1200
G1 X107.516 Y57.738 E.01087
G1 X107.954 Y57.885 E.01448
G1 X108.354 Y58.116 E.01448
G1 X108.701 Y58.422 E.01449
G1 X108.98 Y58.79 E.01448
G1 X109.18 Y59.207 E.01449
G1 X109.294 Y59.654 E.01449
G1 X109.317 Y60.116 E.01448
G1 X109.248 Y60.572 E.01449
G1 X109.09 Y61.007 E.01448
G1 X108.849 Y61.401 E.01449
G1 X108.535 Y61.739 E.01448
G1 X108.16 Y62.009 E.01448
G1 X107.739 Y62.199 E.01448
G1 X107.288 Y62.302 E.01448
G1 X106.827 Y62.313 E.01448
G1 X106.484 Y62.262 E.01087
G1 X106.046 Y62.115 E.01448
G1 X105.646 Y61.884 E.01449
G1 X105.299 Y61.578 E.01448
G1 X105.02 Y61.21 E.01448
G1 X104.82 Y60.793 E.01449
G1 X104.706 Y60.346 E.01448
G1 X104.683 Y59.884 E.01448
G1 X104.752 Y59.428 E.01449
G1 X104.91 Y58.993 E.01448
G1 X105.151 Y58.599 E.01448
G1 X105.465 Y58.261 E.01449
G1 X105.84 Y57.991 E.01448
G1 X106.261 Y57.801 E.01448
G1 X106.712 Y57.698 E.01449
G1 X107.117 Y57.684 E.01272
M204 P1000
G1 X108.854 Y61.088 F9000
M204 P800
G1 F1200
G1 X108.854 Y59.305 E.0559
G1 X108.69 Y58.967 E.01177
G1 X108.435 Y58.636 E.01311
G1 X108.435 Y61.364 E.08554
G1 X108.235 Y61.548 E.00853
G1 X108.016 Y61.699 E.00833
G1 X108.016 Y58.301 E.10656
G1 X107.814 Y58.195 E.00714
G1 X107.597 Y58.112 E.00729
G1 X107.597 Y61.888 E.11837
G1 X107.178 Y61.972 E.0134
G1 X107.178 Y58.028 E.12365
G1 X107.049 Y58.02 E.00404
G1 X106.759 Y58.034 E.00911
G1 X106.759 Y61.966 E.12326
G1 X106.34 Y61.867 E.0135
G1 X106.34 Y58.133 E.11705
G1 X106.097 Y58.238 E.00831
G1 X105.921 Y58.339 E.00636
G1 X105.921 Y61.661 E.10413
G1 X105.69 Y61.485 E.00911
G1 X105.502 Y61.295 E.00837
G1 X105.502 Y58.705 E.08119
G1 X105.261 Y59.053 E.01327
G1 X105.175 Y59.231 E.00619
G1 X105.083 Y59.503 E.00901
G1 X105.083 Y60.973 E.04607
M204 P1000
G1 E-2.24 F4200
;WIPE_START
G1 F7200
G1 X105.083 Y59.503 E-.81434
G1 X105.14 Y59.336 E-.09766
;WIPE_END
G1 E-.048 F4200
G1 Z.4 F720
G1 X113.707 Y57.703 F9000
G1 Z.2 F720
G1 E3.2 F2400
M204 P800
G1 F1200
G1 X111.63 Y58.197 E.06695
G1 X111.63 Y56.346 E.05804
G1 X111.613 Y56.126 E.00693
G1 X111.545 Y55.856 E.00873
G1 X111.452 Y55.646 E.00719
G1 X111.335 Y55.463 E.00683
G1 X111.147 Y55.257 E.00873
G1 X110.976 Y55.122 E.00683
G1 X110.776 Y55.009 E.00719
G1 X110.573 Y54.932 E.00683
G1 X110.3 Y54.878 E.00873
G1 X107.979 Y54.87 E.07275
G1 X108.617 Y52.45 E.07846
G1 X113.707 Y52.45 E.15959
G1 X113.707 Y57.647 E.16293
M204 P1000
G1 X113.044 Y57.687 F9000
M204 P800
G1 F1200
G1 X113.044 Y52.79 E.15354
G1 X112.625 Y52.79 E.01314
G1 X112.625 Y57.612 E.15119
G1 X112.206 Y57.711 E.0135
G1 X112.206 Y52.79 E.15432
G1 X111.787 Y52.79 E.01314
G1 X111.787 Y55.556 E.08673
G1 X111.604 Y55.257 E.01098
G1 X111.368 Y54.998 E.01099
G1 X111.368 Y52.79 E.06925
G1 X110.949 Y52.79 E.01314
G1 X110.949 Y54.716 E.06039
G1 X110.752 Y54.633 E.00669
G1 X110.53 Y54.571 E.00723
G1 X110.53 Y52.79 E.05585
G1 X110.111 Y52.79 E.01314
G1 X110.111 Y54.531 E.05458
G1 X109.692 Y54.531 E.01314
G1 X109.692 Y52.79 E.05458
G1 X109.273 Y52.79 E.01314
G1 X109.273 Y54.531 E.05458
G1 X108.854 Y54.531 E.01314
G1 X108.854 Y52.883 E.05165
G1 X108.435 Y54.473 E.05155
G1 X108.435 Y54.7 E.00712
M204 P1000
G1 E-2.24 F4200
;WIPE_START
G1 F7200
G1 X108.435 Y54.473 E-.12588
G1 X108.797 Y53.101 E-.78612
;WIPE_END
G1 E-.048 F4200
G1 Z.4 F720
G1 X100.257 Y83.484 F9000
G1 Z.2 F720
G1 E3.2 F2400
M204 P800
G1 F1200
G1 X100.601 Y83.518 E.01083
G1 X100.94 Y83.586 E.01083
G1 X101.432 Y83.748 E.01624
G1 X101.744 Y83.896 E.01083
G1 X102.04 Y84.073 E.01083
G1 X102.448 Y84.392 E.01624
G1 X106.399 Y88.354 E.17544
G1 X106.683 Y88.778 E.01599
G1 X106.839 Y89.127 E.012
G1 X106.942 Y89.496 E.012
G1 X106.991 Y89.875 E.012
G1 X106.991 Y90.125 E.00783
G1 X106.965 Y90.379 E.008
G1 X106.839 Y90.873 E.01599
G1 X106.62 Y91.333 E.01599
G1 X106.316 Y91.742 E.01599
G1 X102.448 Y95.608 E.17144
G1 X102.04 Y95.927 E.01624
G1 X101.744 Y96.104 E.01083
G1 X101.27 Y96.314 E.01624
G1 X100.94 Y96.414 E.01083
G1 X100.43 Y96.503 E.01624
G1 X100.079 Y96.52 E.01102
G1 X79.921 Y96.52 E.63202
G1 X79.57 Y96.503 E.01102
G1 X79.229 Y96.452 E.01083
G1 X78.73 Y96.314 E.01624
G1 X78.256 Y96.104 E.01624
G1 X77.96 Y95.927 E.01083
G1 X77.552 Y95.608 E.01624
G1 X73.684 Y91.742 E.17144
G1 X73.522 Y91.545 E.008
G1 X73.317 Y91.222 E.012
G1 X73.161 Y90.873 E.012
G1 X73.086 Y90.629 E.008
G1 X73.035 Y90.379 E.008
G1 X73.005 Y90 E.01191
G1 X73.058 Y89.496 E.0159
G1 X73.161 Y89.127 E.012
G1 X73.259 Y88.892 E.008
G1 X73.38 Y88.667 E.008
G1 X73.601 Y88.354 E.012
G1 X77.552 Y84.392 E.17544
G1 X77.96 Y84.073 E.01624
G1 X78.256 Y83.896 E.01083
G1 X78.73 Y83.686 E.01624
G1 X79.06 Y83.586 E.01083
G1 X79.57 Y83.497 E.01624
G1 X79.921 Y83.48 E.01102
G1 X100.201 Y83.483 E.63585
M204 P1000
G1 X106.34 Y91.446 F9000
M204 P800
G1 F1200
G1 X106.34 Y88.862 E.08102
G1 X106.137 Y88.57 E.01115
G1 X105.921 Y88.338 E.00991
G1 X105.921 Y91.662 E.10419
G1 X105.502 Y92.081 E.01858
G1 X105.502 Y87.92 E.13047
G1 X105.083 Y87.501 E.01858
G1 X105.083 Y92.499 E.15674
G1 X104.664 Y92.918 E.01858
G1 X104.664 Y87.082 E.18301
G1 X104.245 Y86.663 E.01858
M73 P1 R85
G1 X104.245 Y93.337 E.20929
G1 X103.826 Y93.756 E.01858
G1 X103.826 Y86.244 E.23556
G1 X103.407 Y85.825 E.01858
G1 X103.407 Y94.175 E.26183
G1 X102.988 Y94.594 E.01858
G1 X102.988 Y85.406 E.28811
G1 X102.569 Y84.987 E.01858
G1 X102.569 Y95.013 E.31438
G1 X102.15 Y95.417 E.01824
G1 X102.15 Y84.583 E.33969
G1 X101.731 Y84.28 E.01622
G1 X101.731 Y95.72 E.35872
G1 X101.312 Y95.934 E.01474
G1 X101.312 Y84.066 E.37208
G1 X100.893 Y83.925 E.01387
G1 X100.893 Y96.075 E.38096
G1 X100.474 Y96.155 E.01338
G1 X100.474 Y83.845 E.386
G1 X100.055 Y83.819 E.01316
G1 X100.055 Y96.181 E.38758
G1 X99.636 Y96.181 E.01314
G1 X99.636 Y83.819 E.38758
G1 X99.217 Y83.819 E.01314
G1 X99.217 Y96.181 E.38758
G1 X98.799 Y96.181 E.01314
G1 X98.799 Y83.819 E.38758
G1 X98.38 Y83.819 E.01314
G1 X98.38 Y96.181 E.38758
G1 X97.961 Y96.181 E.01314
G1 X97.961 Y83.819 E.38758
G1 X97.542 Y83.819 E.01314
G1 X97.542 Y96.181 E.38758
G1 X97.123 Y96.181 E.01314
G1 X97.123 Y83.819 E.38758
G1 X96.704 Y83.819 E.01314
G1 X96.704 Y96.181 E.38758
G1 X96.285 Y96.181 E.01314
G1 X96.285 Y83.819 E.38758
G1 X95.866 Y83.819 E.01314
G1 X95.866 Y96.181 E.38758
G1 X95.447 Y96.181 E.01314
G1 X95.447 Y83.819 E.38758
G1 X95.028 Y83.819 E.01314
G1 X95.028 Y96.181 E.38758
G1 X94.609 Y96.181 E.01314
G1 X94.609 Y83.819 E.38758
G1 X94.19 Y83.819 E.01314
G1 X94.19 Y96.181 E.38758
G1 X93.771 Y96.181 E.01314
G1 X93.771 Y83.819 E.38758
G1 X93.352 Y83.819 E.01314
G1 X93.352 Y96.181 E.38758
G1 X92.933 Y96.181 E.01314
G1 X92.933 Y83.819 E.38758
G1 X92.514 Y83.819 E.01314
G1 X92.514 Y96.181 E.38758
G1 X92.095 Y96.181 E.01314
G1 X92.095 Y83.819 E.38758
G1 X91.676 Y83.819 E.01314
G1 X91.676 Y96.181 E.38758
G1 X91.257 Y96.181 E.01314
G1 X91.257 Y83.819 E.38758
G1 X90.838 Y83.819 E.01314
G1 X90.838 Y96.181 E.38758
G1 X90.419 Y96.181 E.01314
G1 X90.419 Y83.819 E.38758
G1 X90 Y83.819 E.01314
G1 X90 Y96.181 E.38758
G1 X89.581 Y96.181 E.01314
G1 X89.581 Y83.819 E.38758
G1 X89.162 Y83.819 E.01314
G1 X89.162 Y96.181 E.38758
G1 X88.743 Y96.181 E.01314
G1 X88.743 Y83.819 E.38758
G1 X88.324 Y83.819 E.01314
G1 X88.324 Y96.181 E.38758
G1 X87.905 Y96.181 E.01314
G1 X87.905 Y83.819 E.38758
G1 X87.486 Y83.819 E.01314
G1 X87.486 Y96.181 E.38758
G1 X87.067 Y96.181 E.01314
G1 X87.067 Y83.819 E.38758
G1 X86.648 Y83.819 E.01314
G1 X86.648 Y96.181 E.38758
G1 X86.229 Y96.181 E.01314
G1 X86.229 Y83.819 E.38758
G1 X85.81 Y83.819 E.01314
G1 X85.81 Y96.181 E.38758
G1 X85.391 Y96.181 E.01314
G1 X85.391 Y83.819 E.38758
G1 X84.972 Y83.819 E.01314
G1 X84.972 Y96.181 E.38758
G1 X84.553 Y96.181 E.01314
G1 X84.553 Y83.819 E.38758
G1 X84.134 Y83.819 E.01314
M73 P2 R85
G1 X84.134 Y96.181 E.38758
G1 X83.715 Y96.181 E.01314
G1 X83.715 Y83.819 E.38758
G1 X83.296 Y83.819 E.01314
G1 X83.296 Y96.181 E.38758
G1 X82.877 Y96.181 E.01314
G1 X82.877 Y83.819 E.38758
G1 X82.458 Y83.819 E.01314
G1 X82.458 Y96.181 E.38758
G1 X82.039 Y96.181 E.01314
G1 X82.039 Y83.819 E.38758
G1 X81.62 Y83.819 E.01314
G1 X81.62 Y96.181 E.38758
G1 X81.201 Y96.181 E.01314
G1 X81.201 Y83.819 E.38758
G1 X80.783 Y83.819 E.01314
G1 X80.783 Y96.181 E.38758
G1 X80.364 Y96.181 E.01314
G1 X80.364 Y83.819 E.38758
G1 X79.945 Y83.819 E.01314
G1 X79.945 Y96.181 E.38758
G1 X79.604 Y96.165 E.0107
G1 X79.526 Y96.155 E.00247
G1 X79.526 Y83.845 E.386
G1 X79.107 Y83.925 E.01338
G1 X79.107 Y96.075 E.38096
G1 X78.688 Y95.934 E.01387
G1 X78.688 Y84.066 E.37208
G1 X78.269 Y84.28 E.01474
G1 X78.269 Y95.72 E.35872
G1 X77.85 Y95.417 E.01622
G1 X77.85 Y84.583 E.33969
G1 X77.431 Y84.987 E.01824
G1 X77.431 Y95.013 E.31438
G1 X77.012 Y94.594 E.01858
G1 X77.012 Y85.406 E.28811
G1 X76.593 Y85.825 E.01858
G1 X76.593 Y94.175 E.26183
G1 X76.174 Y93.756 E.01858
G1 X76.174 Y86.244 E.23556
G1 X75.755 Y86.663 E.01858
G1 X75.755 Y93.337 E.20929
G1 X75.336 Y92.918 E.01858
G1 X75.336 Y87.082 E.18301
G1 X74.917 Y87.501 E.01858
