; generated by PrusaSlicer 2.5.0+MacOS-x64 on 2023-01-29 at 15:45:57 UTC


;
;

;
;
; 

; external perimeters extrusion width = 0.45mm
; perimeters extrusion width = 0.45mm
; infill extrusion width = 0.45mm
; solid infill extrusion width = 0.45mm
; top infill extrusion width = 0.40mm
; first layer extrusion width = 0.42mm

; external perimeters extrusion width = 0.45mm
; perimeters extrusion width = 0.45mm
; infill extrusion width = 0.45mm
; solid infill extrusion width = 0.45mm
; top infill extrusion width = 0.40mm
; first layer extrusion width = 0.42mm

; external perimeters extrusion width = 0.45mm
; perimeters extrusion width = 0.45mm
; infill extrusion width = 0.45mm
; solid infill extrusion width = 0.45mm
; top infill extrusion width = 0.40mm
; first layer extrusion width = 0.42mm

; external perimeters extrusion width = 0.45mm
; perimeters extrusion width = 0.45mm
; infill extrusion width = 0.45mm
; solid infill extrusion width = 0.45mm
; top infill extrusion width = 0.40mm
; first layer extrusion width = 0.42mm

M73 P0 R20
M201 X2500 Y2500 Z400 E5000 ; sets maximum accelerations, mm/sec^2
M203 X180 Y180 Z12 E80 ; sets maximum feedrates, mm / sec
M204 P1250 R1250 T2500 ; sets acceleration (P, T) and retract acceleration (R), mm/sec^2
M205 X8.00 Y8.00 Z2.00 E10.00 ; sets the jerk limits, mm/sec
M205 S0 T0 ; sets the minimum extruding and travel feed rate, mm/sec
M107
;TYPE:Custom
M862.3 P "MINI" ; printer model check
G90 ; use absolute coordinates
M83 ; extruder relative mode
M104 S170 ; set extruder temp for bed leveling
M140 S60 ; set bed temp
M109 R170 ; wait for bed leveling temp
M190 S60 ; wait for bed temp
M204 T1250 ; set travel acceleration
G28 ; home all without mesh bed level
G29 ; mesh bed leveling 
M204 T2500 ; restore travel acceleration
M104 S215 ; set extruder temp
G92 E0
G1 Y-2 X179 F2400
G1 Z3 F720
M109 S215 ; wait for extruder temp

; intro line
M73 P0 R19
G1 X170 F1000
G1 Z0.2 F720
G1 X110 E8 F900
G1 X40 E10 F700
G92 E0

M221 S95 ; set flow
G21 ; set units to millimeters
G90 ; use absolute coordinates
M83 ; use relative distances for extrusion
M900 K0.2 ; Filament gcode LA 1.5
; ; Filament gcode LA 1.0
M107
;LAYER_CHANGE
;Z:0.2
;HEIGHT:0.2
;BEFORE_LAYER_CHANGE
G92 E0.0
;0.2


G1 E-3.2 F4200
M73 P1 R19
G1 Z.2 F720
;AFTER_LAYER_CHANGE
;0.2
G1 Z.4
G1 X57.403 Y78.417 F9000
G1 Z.2 F720
G1 E3.2 F2400
M204 P800
;TYPE:Skirt/Brim
;WIDTH:0.42
G1 F1200
G1 X58.343 Y78.223 E.03008
G1 X121.102 Y78.223 E1.96777
G1 X122.409 Y78.615 E.04278
G1 X123.285 Y79.66 E.04278
G1 X123.479 Y80.6 E.03008
G1 X123.479 Y99.4 E.58946
G1 X123.087 Y100.707 E.04278
G1 X122.041 Y101.583 E.04278
G1 X121.102 Y101.777 E.03008
G1 X58.343 Y101.777 E1.96777
G1 X57.036 Y101.385 E.04278
M73 P2 R19
G1 X56.159 Y100.34 E.04278
G1 X55.965 Y99.4 E.03008
G1 X55.965 Y80.6 E.58946
G1 X56.357 Y79.293 E.04278
G1 X57.357 Y78.455 E.0409
M204 P1000
; printing object K_rper_15_(1) id:1 copy 0
G1 E-2.24 F4200
;WIPE_START
G1 F7200
G1 X58.343 Y78.223 E-.56121
G1 X58.976 Y78.223 E-.35079
;WIPE_END
G1 E-.048 F4200
G1 Z.4 F720
G1 X59.507 Y81.764 F9000
G1 Z.2 F720
G1 E3.2 F2400
M204 P800
;TYPE:Perimeter
;WIDTH:0.419999
G1 F1200
G1 X64.678 Y81.764 E.16215
G1 X64.678 Y98.236 E.51646
G1 X59.507 Y98.236 E.16215
G1 X59.507 Y95.832 E.07536
G1 X60.353 Y94.986 E.03753
G1 X60.702 Y94.568 E.01706
G1 X61.021 Y94.012 E.0201
G1 X61.197 Y93.493 E.01718
G1 X61.307 Y92.683 E.02561
G1 X61.296 Y87.086 E.17549
G1 X61.13 Y86.202 E.02822
G1 X60.792 Y85.507 E.02424
G1 X60.382 Y84.993 E.0206
G1 X59.507 Y84.118 E.03882
G1 X59.507 Y81.824 E.07192
M204 P1000
G1 X59.13 Y81.387 F9000
M204 P800
G1 F1200
G1 X65.055 Y81.387 E.1858
G1 X65.055 Y98.613 E.5401
G1 X59.13 Y98.613 E.1858
G1 X59.13 Y95.676 E.09208
G1 X60.086 Y94.719 E.04243
G1 X60.409 Y94.331 E.01582
G1 X60.633 Y93.952 E.01382
G1 X60.824 Y93.437 E.01719
G1 X60.93 Y92.683 E.02387
G1 X60.923 Y87.142 E.17375
G1 X60.786 Y86.355 E.02506
G1 X60.494 Y85.739 E.02136
G1 X60.116 Y85.26 E.01914
G1 X59.13 Y84.274 E.04372
G1 X59.13 Y81.447 E.08864
M204 P1000
G1 X58.753 Y81.01 F9000
M204 P800
;TYPE:External perimeter
G1 F1200
G1 X65.433 Y81.01 E.20945
G1 X65.433 Y98.99 E.56375
G1 X58.753 Y98.99 E.20945
G1 X58.753 Y95.52 E.1088
G1 X59.471 Y94.801 E.03187
G1 X60.117 Y94.092 E.03008
G1 X60.305 Y93.766 E.0118
G1 X60.451 Y93.382 E.01287
G1 X60.553 Y92.683 E.02213
G1 X60.55 Y87.197 E.17201
G1 X60.441 Y86.507 E.02191
G1 X60.197 Y85.971 E.01849
G1 X59.849 Y85.527 E.01769
G1 X58.753 Y84.43 E.04862
G1 X58.753 Y81.07 E.10536
M204 P1000
G1 X59.114 Y81.182 F9000
G1 E-2.24 F4200
;WIPE_START
G1 F7200
G1 X60.398 Y81.055 E-.912
;WIPE_END
G1 E-.048 F4200
G1 Z.4 F720
G1 X64.565 Y82.658 F9000
G1 Z.2 F720
G1 E3.2 F2400
M204 P800
;TYPE:Solid infill
;WIDTH:0.428498
G1 F1200
G1 X63.955 Y82.047 E.02769
G1 X63.409 Y82.047 E.01748
G1 X64.396 Y83.033 E.04472
G1 X64.396 Y83.578 E.01748
G1 X62.864 Y82.047 E.06944
G1 X62.319 Y82.047 E.01748
G1 X64.396 Y84.124 E.09416
G1 X64.396 Y84.669 E.01748
G1 X61.774 Y82.047 E.11889
G1 X61.228 Y82.047 E.01748
G1 X64.396 Y85.214 E.14361
G1 X64.396 Y85.76 E.01748
G1 X60.683 Y82.047 E.16834
G1 X60.138 Y82.047 E.01748
G1 X64.396 Y86.305 E.19306
G1 X64.396 Y86.85 E.01748
G1 X59.79 Y82.244 E.20884
G1 X59.79 Y82.789 E.01748
G1 X64.396 Y87.395 E.20884
G1 X64.396 Y87.941 E.01748
G1 X59.79 Y83.335 E.20884
G1 X59.79 Y83.88 E.01748
M73 P3 R19
G1 X64.396 Y88.486 E.20884
G1 X64.396 Y89.031 E.01748
G1 X61.339 Y85.975 E.13858
G1 X61.48 Y86.398 E.01429
G1 X61.52 Y86.702 E.00983
G1 X64.396 Y89.577 E.13036
G1 X64.396 Y90.122 E.01748
G1 X61.59 Y87.316 E.12723
G1 X61.59 Y87.861 E.01748
G1 X64.396 Y90.667 E.12723
G1 X64.396 Y91.213 E.01748
G1 X61.59 Y88.406 E.12723
G1 X61.59 Y88.952 E.01748
G1 X64.396 Y91.758 E.12723
G1 X64.396 Y92.303 E.01748
G1 X61.59 Y89.497 E.12723
G1 X61.59 Y90.042 E.01748
G1 X64.396 Y92.848 E.12723
G1 X64.396 Y93.394 E.01748
G1 X61.59 Y90.588 E.12723
G1 X61.59 Y91.133 E.01748
G1 X64.396 Y93.939 E.12723
G1 X64.396 Y94.484 E.01748
G1 X61.59 Y91.678 E.12723
G1 X61.59 Y92.223 E.01748
G1 X64.396 Y95.03 E.12723
G1 X64.396 Y95.575 E.01748
G1 X61.58 Y92.759 E.12766
G1 X61.515 Y93.24 E.01554
G1 X64.396 Y96.12 E.1306
G1 X64.396 Y96.665 E.01748
G1 X61.433 Y93.703 E.1343
G1 X61.282 Y94.098 E.01354
G1 X64.396 Y97.211 E.14115
G1 X64.396 Y97.756 E.01748
G1 X61.097 Y94.458 E.14954
G1 X60.885 Y94.791 E.01266
G1 X64.047 Y97.953 E.14339
G1 X63.502 Y97.953 E.01748
G1 X60.639 Y95.09 E.12981
G1 X60.369 Y95.365 E.01236
G1 X62.957 Y97.953 E.11735
G1 X62.411 Y97.953 E.01748
G1 X60.097 Y95.639 E.10493
G1 X59.826 Y95.913 E.01236
G1 X61.866 Y97.953 E.09252
G1 X61.321 Y97.953 E.01748
G1 X59.79 Y96.422 E.06944
G1 X59.79 Y96.967 E.01748
G1 X60.776 Y97.953 E.04471
G1 X60.23 Y97.953 E.01748
G1 X59.62 Y97.343 E.02768
M204 P1000
; stop printing object K_rper_15_(1) id:1 copy 0
; printing object K_rper_15_(2) id:2 copy 0
G1 E-2.24 F4200
;WIPE_START
G1 F7200
G1 X60.23 Y97.953 E-.47846
G1 X60.776 Y97.953 E-.30218
G1 X60.608 Y97.785 E-.13136
;WIPE_END
G1 E-.048 F4200
G1 Z.4 F720
G1 X77.651 Y81.764 F9000
G1 Z.2 F720
G1 E3.2 F2400
M204 P800
;TYPE:Perimeter
;WIDTH:0.419999
G1 F1200
G1 X82.822 Y81.764 E.16215
G1 X82.822 Y98.236 E.51646
G1 X77.651 Y98.236 E.16215
G1 X77.651 Y95.832 E.07536
G1 X78.497 Y94.986 E.03753
G1 X78.846 Y94.568 E.01706
G1 X79.165 Y94.012 E.0201
G1 X79.341 Y93.493 E.01719
G1 X79.451 Y92.683 E.02561
G1 X79.44 Y87.086 E.17549
G1 X79.274 Y86.202 E.02822
G1 X78.936 Y85.507 E.02424
G1 X78.526 Y84.993 E.0206
G1 X77.651 Y84.118 E.03882
G1 X77.651 Y81.824 E.07192
M204 P1000
G1 X77.274 Y81.387 F9000
M204 P800
G1 F1200
G1 X83.199 Y81.387 E.1858
G1 X83.199 Y98.613 E.5401
G1 X77.274 Y98.613 E.1858
G1 X77.274 Y95.676 E.09208
G1 X78.231 Y94.719 E.04243
G1 X78.553 Y94.331 E.01582
G1 X78.777 Y93.952 E.01382
G1 X78.968 Y93.437 E.01719
G1 X79.074 Y92.683 E.02387
G1 X79.067 Y87.142 E.17375
G1 X78.93 Y86.355 E.02506
G1 X78.638 Y85.739 E.02136
G1 X78.26 Y85.26 E.01914
G1 X77.274 Y84.274 E.04372
G1 X77.274 Y81.447 E.08864
M204 P1000
G1 X76.897 Y81.01 F9000
M204 P800
;TYPE:External perimeter
G1 F1200
G1 X83.577 Y81.01 E.20945
G1 X83.577 Y98.99 E.56375
G1 X76.897 Y98.99 E.20945
M73 P4 R19
G1 X76.897 Y95.52 E.1088
G1 X77.615 Y94.801 E.03187
G1 X78.261 Y94.092 E.03008
G1 X78.449 Y93.766 E.0118
G1 X78.595 Y93.382 E.01287
G1 X78.697 Y92.683 E.02213
G1 X78.695 Y87.197 E.17201
G1 X78.585 Y86.507 E.02191
G1 X78.341 Y85.971 E.01849
G1 X77.993 Y85.527 E.01769
G1 X76.897 Y84.43 E.04862
G1 X76.897 Y81.07 E.10536
M204 P1000
G1 X77.258 Y81.182 F9000
G1 E-2.24 F4200
;WIPE_START
G1 F7200
G1 X78.542 Y81.055 E-.912
;WIPE_END
G1 E-.048 F4200
G1 Z.4 F720
G1 X82.709 Y82.658 F9000
G1 Z.2 F720
G1 E3.2 F2400
M204 P800
;TYPE:Solid infill
;WIDTH:0.428498
G1 F1200
G1 X82.099 Y82.047 E.02769
G1 X81.553 Y82.047 E.01748
G1 X82.54 Y83.033 E.04472
G1 X82.54 Y83.578 E.01748
G1 X81.008 Y82.047 E.06944
G1 X80.463 Y82.047 E.01748
G1 X82.54 Y84.124 E.09416
G1 X82.54 Y84.669 E.01748
G1 X79.918 Y82.047 E.11889
G1 X79.372 Y82.047 E.01748
G1 X82.54 Y85.214 E.14361
G1 X82.54 Y85.76 E.01748
G1 X78.827 Y82.047 E.16834
G1 X78.282 Y82.047 E.01748
G1 X82.54 Y86.305 E.19306
G1 X82.54 Y86.85 E.01748
G1 X77.934 Y82.244 E.20884
G1 X77.934 Y82.789 E.01748
G1 X82.54 Y87.395 E.20884
G1 X82.54 Y87.941 E.01748
G1 X77.934 Y83.335 E.20884
G1 X77.934 Y83.88 E.01748
G1 X82.54 Y88.486 E.20884
G1 X82.54 Y89.031 E.01748
G1 X79.483 Y85.975 E.13858
G1 X79.624 Y86.398 E.01429
G1 X79.664 Y86.702 E.00983
G1 X82.54 Y89.577 E.13036
G1 X82.54 Y90.122 E.01748
G1 X79.734 Y87.316 E.12723
G1 X79.734 Y87.861 E.01748
G1 X82.54 Y90.667 E.12723
G1 X82.54 Y91.213 E.01748
G1 X79.734 Y88.406 E.12723
G1 X79.734 Y88.952 E.01748
G1 X82.54 Y91.758 E.12723
G1 X82.54 Y92.303 E.01748
G1 X79.734 Y89.497 E.12723
G1 X79.734 Y90.042 E.01748
G1 X82.54 Y92.848 E.12723
G1 X82.54 Y93.394 E.01748
G1 X79.734 Y90.588 E.12723
G1 X79.734 Y91.133 E.01748
G1 X82.54 Y93.939 E.12723
G1 X82.54 Y94.484 E.01748
G1 X79.734 Y91.678 E.12723
G1 X79.734 Y92.223 E.01748
G1 X82.54 Y95.03 E.12723
G1 X82.54 Y95.575 E.01748
G1 X79.724 Y92.759 E.12766
G1 X79.659 Y93.24 E.01554
G1 X82.54 Y96.12 E.1306
G1 X82.54 Y96.665 E.01748
G1 X79.578 Y93.703 E.1343
G1 X79.426 Y94.098 E.01354
G1 X82.54 Y97.211 E.14115
G1 X82.54 Y97.756 E.01748
G1 X79.241 Y94.458 E.14954
G1 X79.029 Y94.791 E.01266
G1 X82.191 Y97.953 E.14339
G1 X81.646 Y97.953 E.01748
G1 X78.783 Y95.09 E.12981
G1 X78.513 Y95.365 E.01236
G1 X81.101 Y97.953 E.11735
G1 X80.556 Y97.953 E.01748
G1 X78.241 Y95.639 E.10493
G1 X77.97 Y95.913 E.01236
G1 X80.01 Y97.953 E.09252
G1 X79.465 Y97.953 E.01748
G1 X77.934 Y96.422 E.06944
G1 X77.934 Y96.967 E.01748
G1 X78.92 Y97.953 E.04471
G1 X78.374 Y97.953 E.01748
G1 X77.764 Y97.343 E.02768
M204 P1000
; stop printing object K_rper_15_(2) id:2 copy 0
; printing object K_rper_15 id:0 copy 0
G1 E-2.24 F4200
;WIPE_START
G1 F7200
G1 X78.374 Y97.953 E-.47846
G1 X78.92 Y97.953 E-.30218
G1 X78.752 Y97.785 E-.13136
;WIPE_END
G1 E-.048 F4200
G1 Z.4 F720
G1 X96.619 Y81.764 F9000
G1 Z.2 F720
G1 E3.2 F2400
M204 P800
;TYPE:Perimeter
;WIDTH:0.419999
G1 F1200
G1 X101.791 Y81.764 E.16215
G1 X101.791 Y98.236 E.51646
G1 X96.619 Y98.236 E.16215
M73 P5 R19
G1 X96.619 Y95.832 E.07536
G1 X97.466 Y94.986 E.03753
G1 X97.814 Y94.568 E.01706
M73 P5 R18
G1 X98.133 Y94.012 E.0201
G1 X98.309 Y93.493 E.01719
G1 X98.419 Y92.683 E.02561
G1 X98.409 Y87.086 E.17549
G1 X98.243 Y86.202 E.02822
G1 X97.904 Y85.507 E.02424
G1 X97.495 Y84.993 E.0206
G1 X96.619 Y84.118 E.03882
G1 X96.619 Y81.824 E.07192
M204 P1000
G1 X96.242 Y81.387 F9000
M204 P800
G1 F1200
G1 X102.168 Y81.387 E.1858
G1 X102.168 Y98.613 E.5401
G1 X96.242 Y98.613 E.1858
G1 X96.242 Y95.676 E.09208
G1 X97.199 Y94.719 E.04243
G1 X97.521 Y94.331 E.01582
G1 X97.746 Y93.952 E.01382
G1 X97.936 Y93.437 E.01719
G1 X98.042 Y92.683 E.02387
G1 X98.036 Y87.142 E.17375
G1 X97.898 Y86.355 E.02506
G1 X97.607 Y85.739 E.02136
G1 X97.228 Y85.26 E.01914
G1 X96.242 Y84.274 E.04372
G1 X96.242 Y81.447 E.08864
M204 P1000
G1 X95.865 Y81.01 F9000
M204 P800
;TYPE:External perimeter
G1 F1200
G1 X102.545 Y81.01 E.20945
G1 X102.545 Y98.99 E.56375
G1 X95.865 Y98.99 E.20945
G1 X95.865 Y95.52 E.1088
G1 X96.584 Y94.801 E.03187
G1 X97.229 Y94.092 E.03008
G1 X97.418 Y93.766 E.0118
G1 X97.563 Y93.382 E.01287
G1 X97.665 Y92.683 E.02213
G1 X97.663 Y87.197 E.17201
G1 X97.553 Y86.507 E.02191
G1 X97.309 Y85.971 E.01849
G1 X96.961 Y85.527 E.01769
G1 X95.865 Y84.43 E.04862
G1 X95.865 Y81.07 E.10536
M204 P1000
G1 X96.226 Y81.182 F9000
G1 E-2.24 F4200
;WIPE_START
G1 F7200
G1 X97.511 Y81.055 E-.912
;WIPE_END
G1 E-.048 F4200
G1 Z.4 F720
G1 X101.678 Y82.658 F9000
G1 Z.2 F720
G1 E3.2 F2400
M204 P800
;TYPE:Solid infill
;WIDTH:0.428498
G1 F1200
G1 X101.067 Y82.047 E.02769
G1 X100.522 Y82.047 E.01748
G1 X101.508 Y83.033 E.04472
G1 X101.508 Y83.578 E.01748
G1 X99.977 Y82.047 E.06944
G1 X99.431 Y82.047 E.01748
G1 X101.508 Y84.124 E.09416
G1 X101.508 Y84.669 E.01748
G1 X98.886 Y82.047 E.11889
G1 X98.341 Y82.047 E.01748
G1 X101.508 Y85.214 E.14361
G1 X101.508 Y85.76 E.01748
G1 X97.795 Y82.047 E.16834
G1 X97.25 Y82.047 E.01748
G1 X101.508 Y86.305 E.19306
G1 X101.508 Y86.85 E.01748
G1 X96.902 Y82.244 E.20884
G1 X96.902 Y82.789 E.01748
G1 X101.508 Y87.395 E.20884
G1 X101.508 Y87.941 E.01748
G1 X96.902 Y83.335 E.20884
G1 X96.902 Y83.88 E.01748
G1 X101.508 Y88.486 E.20884
G1 X101.508 Y89.031 E.01748
G1 X98.452 Y85.975 E.13858
G1 X98.592 Y86.398 E.01429
G1 X98.633 Y86.702 E.00983
G1 X101.508 Y89.577 E.13036
G1 X101.508 Y90.122 E.01748
G1 X98.702 Y87.316 E.12723
G1 X98.702 Y87.861 E.01748
G1 X101.508 Y90.667 E.12723
G1 X101.508 Y91.213 E.01748
G1 X98.702 Y88.406 E.12723
G1 X98.702 Y88.952 E.01748
G1 X101.508 Y91.758 E.12723
G1 X101.508 Y92.303 E.01748
G1 X98.702 Y89.497 E.12723
G1 X98.702 Y90.042 E.01748
G1 X101.508 Y92.848 E.12723
M73 P6 R18
G1 X101.508 Y93.394 E.01748
G1 X98.702 Y90.588 E.12723
G1 X98.702 Y91.133 E.01748
G1 X101.508 Y93.939 E.12723
G1 X101.508 Y94.484 E.01748
G1 X98.702 Y91.678 E.12723
G1 X98.702 Y92.223 E.01748
G1 X101.508 Y95.03 E.12723
G1 X101.508 Y95.575 E.01748
G1 X98.693 Y92.759 E.12766
G1 X98.628 Y93.24 E.01554
G1 X101.508 Y96.12 E.1306
G1 X101.508 Y96.665 E.01748
G1 X98.546 Y93.703 E.1343
G1 X98.395 Y94.098 E.01354
G1 X101.508 Y97.211 E.14115
G1 X101.508 Y97.756 E.01748
G1 X98.21 Y94.458 E.14954
G1 X97.997 Y94.791 E.01266
G1 X101.16 Y97.953 E.14339
G1 X100.615 Y97.953 E.01748
G1 X97.752 Y95.09 E.12981
G1 X97.481 Y95.365 E.01236
G1 X100.069 Y97.953 E.11735
G1 X99.524 Y97.953 E.01748
G1 X97.21 Y95.639 E.10493
G1 X96.938 Y95.913 E.01236
G1 X98.979 Y97.953 E.09252
G1 X98.433 Y97.953 E.01748
G1 X96.902 Y96.422 E.06944
G1 X96.902 Y96.967 E.01748
G1 X97.888 Y97.953 E.04471
G1 X97.343 Y97.953 E.01748
G1 X96.732 Y97.343 E.02768
M204 P1000
; stop printing object K_rper_15 id:0 copy 0
; printing object K_rper_15_(3) id:3 copy 0
G1 E-2.24 F4200
;WIPE_START
G1 F7200
G1 X97.343 Y97.953 E-.47846
G1 X97.888 Y97.953 E-.30218
G1 X97.72 Y97.785 E-.13136
;WIPE_END
G1 E-.048 F4200
G1 Z.4 F720
G1 X114.766 Y81.764 F9000
G1 Z.2 F720
G1 E3.2 F2400
M204 P800
;TYPE:Perimeter
;WIDTH:0.419999
G1 F1200
G1 X119.937 Y81.764 E.16215
G1 X119.937 Y98.236 E.51646
G1 X114.766 Y98.236 E.16215
G1 X114.766 Y95.832 E.07536
G1 X115.612 Y94.986 E.03753
G1 X115.961 Y94.568 E.01706
G1 X116.28 Y94.012 E.0201
G1 X116.456 Y93.493 E.01719
G1 X116.566 Y92.683 E.02561
G1 X116.555 Y87.086 E.17552
G1 X116.397 Y86.217 E.02768
G1 X116.114 Y85.613 E.02092
G1 X115.641 Y84.993 E.02445
G1 X114.766 Y84.118 E.03881
G1 X114.766 Y81.824 E.07192
M204 P1000
G1 X114.389 Y81.387 F9000
M204 P800
G1 F1200
G1 X120.315 Y81.387 E.1858
G1 X120.315 Y98.613 E.5401
G1 X114.389 Y98.613 E.1858
G1 X114.389 Y95.676 E.09208
G1 X115.346 Y94.719 E.04243
G1 X115.668 Y94.331 E.01582
G1 X115.892 Y93.952 E.01382
G1 X116.083 Y93.437 E.01719
G1 X116.189 Y92.683 E.02387
G1 X116.182 Y87.141 E.17377
G1 X116.049 Y86.362 E.02478
G1 X115.812 Y85.838 E.01805
G1 X115.375 Y85.26 E.02272
G1 X114.389 Y84.274 E.04371
G1 X114.389 Y81.447 E.08864
M204 P1000
G1 X114.012 Y81.01 F9000
M204 P800
;TYPE:External perimeter
G1 F1200
G1 X120.692 Y81.01 E.20945
G1 X120.692 Y98.99 E.56375
