; generated by PrusaSlicer 2.5.0+MacOS-x64 on 2023-01-29 at 15:31:56 UTC


;
;

;
;
; 

; external perimeters extrusion width = 0.45mm
; perimeters extrusion width = 0.45mm
; infill extrusion width = 0.45mm
; solid infill extrusion width = 0.45mm
; top infill extrusion width = 0.40mm
; first layer extrusion width = 0.42mm

M73 P0 R61
M201 X2500 Y2500 Z400 E5000 ; sets maximum accelerations, mm/sec^2
M203 X180 Y180 Z12 E80 ; sets maximum feedrates, mm / sec
M204 P1250 R1250 T2500 ; sets acceleration (P, T) and retract acceleration (R), mm/sec^2
M205 X8.00 Y8.00 Z2.00 E10.00 ; sets the jerk limits, mm/sec
M205 S0 T0 ; sets the minimum extruding and travel feed rate, mm/sec
M107
;TYPE:Custom
M862.3 P "MINI" ; printer model check
G90 ; use absolute coordinates
M83 ; extruder relative mode
M104 S170 ; set extruder temp for bed leveling
M140 S60 ; set bed temp
M109 R170 ; wait for bed leveling temp
M190 S60 ; wait for bed temp
M204 T1250 ; set travel acceleration
G28 ; home all without mesh bed level
G29 ; mesh bed leveling 
M204 T2500 ; restore travel acceleration
M104 S215 ; set extruder temp
G92 E0
G1 Y-2 X179 F2400
G1 Z3 F720
M109 S215 ; wait for extruder temp

; intro line
G1 X170 F1000
G1 Z0.2 F720
G1 X110 E8 F900
G1 X40 E10 F700
G92 E0

M221 S95 ; set flow
G21 ; set units to millimeters
G90 ; use absolute coordinates
M83 ; use relative distances for extrusion
M900 K0.2 ; Filament gcode LA 1.5
; ; Filament gcode LA 1.0
M107
;LAYER_CHANGE
;Z:0.2
;HEIGHT:0.2
;BEFORE_LAYER_CHANGE
G92 E0.0
;0.2


G1 Z.2 F720
;AFTER_LAYER_CHANGE
;0.2
G1 E-3.2 F4200
G1 Z.4 F720
G1 X72.687 Y72.767 F9000
G1 Z.2 F720
G1 E3.2 F2400
M204 P800
;TYPE:Skirt/Brim
;WIDTH:0.42
G1 F1200
G1 X74.443 Y71.167 E.0745
G1 X76.395 Y69.711 E.07636
G1 X78.483 Y68.458 E.07636
G1 X80.685 Y67.418 E.07635
G1 X82.98 Y66.603 E.07635
G1 X85.344 Y66.02 E.07636
G1 X87.755 Y65.676 E.07636
G1 X90.248 Y65.574 E.07821
G1 X92.615 Y65.713 E.07436
G1 X95.025 Y66.095 E.07649
G1 X97.38 Y66.714 E.07636
G1 X99.662 Y67.564 E.07635
G1 X101.848 Y68.638 E.07635
G1 X103.916 Y69.923 E.07636
G1 X105.846 Y71.409 E.07635
G1 X107.618 Y73.079 E.07635
G1 X108.981 Y74.623 E.06457
G1 X110.417 Y76.589 E.07635
G1 X111.651 Y78.689 E.07636
G1 X112.67 Y80.901 E.07636
G1 X113.463 Y83.203 E.07636
G1 X114.023 Y85.573 E.07635
G1 X114.345 Y87.987 E.07636
G1 X114.425 Y90.361 E.0745
G1 X114.261 Y92.851 E.07821
G1 X113.857 Y95.252 E.07636
G1 X113.215 Y97.601 E.07635
G1 X112.367 Y99.821 E.0745
G1 X111.249 Y102.05 E.07821
G1 X109.977 Y104.058 E.0745
G1 X108.478 Y105.977 E.07635
G1 X107.313 Y107.233 E.05371
G1 X105.557 Y108.833 E.0745
G1 X103.605 Y110.289 E.07636
G1 X101.517 Y111.542 E.07636
G1 X99.315 Y112.582 E.07635
G1 X97.02 Y113.397 E.07635
G1 X94.656 Y113.98 E.07636
G1 X92.245 Y114.324 E.07636
G1 X89.812 Y114.427 E.07635
G1 X87.381 Y114.287 E.07634
G1 X84.975 Y113.905 E.07637
G1 X82.62 Y113.286 E.07636
G1 X80.685 Y112.582 E.06456
G1 X78.483 Y111.542 E.07635
G1 X76.395 Y110.289 E.07636
G1 X74.443 Y108.833 E.07635
G1 X72.645 Y107.191 E.07634
G1 X71.02 Y105.378 E.07633
G1 X69.583 Y103.411 E.0764
G1 X68.349 Y101.311 E.07636
G1 X67.33 Y99.098 E.07641
G1 X66.537 Y96.797 E.07631
G1 X65.977 Y94.427 E.07635
G1 X65.655 Y92.013 E.07636
G1 X65.575 Y89.639 E.0745
G1 X65.739 Y87.149 E.07821
G1 X66.143 Y84.748 E.07636
G1 X66.785 Y82.399 E.07635
G1 X67.633 Y80.179 E.0745
G1 X68.751 Y77.95 E.07821
G1 X70.023 Y75.942 E.0745
G1 X71.522 Y74.023 E.07635
G1 X72.646 Y72.811 E.05183
M204 P1000
G1 E-2.24 F4200
;WIPE_START
G1 F7200
G1 X73.86 Y71.7 E-.912
;WIPE_END
G1 E-.048 F4200
G1 Z.4 F720
G1 X74.684 Y74.851 F9000
G1 Z.2 F720
G1 E3.2 F2400
M204 P800
G1 F1200
G1 X75.524 Y74.013 E.03721
G1 X77.161 Y72.67 E.06639
G1 X78.918 Y71.497 E.06623
G1 X80.785 Y70.501 E.06634
G1 X82.742 Y69.69 E.06643
G1 X84.768 Y69.077 E.06638
G1 X86.848 Y68.664 E.06647
G1 X88.957 Y68.458 E.06644
G1 X91.06 Y68.458 E.06592
G1 X92.813 Y68.619 E.05522
G1 X94.861 Y68.988 E.06524
G1 X96.928 Y69.576 E.06739
G1 X98.927 Y70.367 E.06741
G1 X100.838 Y71.353 E.06741
G1 X102.641 Y72.525 E.06742
G1 X104.318 Y73.871 E.06741
G1 X105.853 Y75.376 E.06741
G1 X107.229 Y77.027 E.06739
G1 X108.425 Y78.79 E.06679
G1 X109.441 Y80.663 E.06681
G1 X110.274 Y82.645 E.0674
G1 X110.901 Y84.681 E.06681
G1 X111.327 Y86.788 E.0674
G1 X111.541 Y88.925 E.06735
G1 X111.541 Y91.065 E.0671
G1 X111.333 Y93.17 E.06632
G1 X110.919 Y95.248 E.06644
G1 X110.303 Y97.275 E.06642
G1 X109.499 Y99.216 E.06585
G1 X108.502 Y101.083 E.06639
G1 X107.327 Y102.843 E.06635
G1 X105.985 Y104.478 E.06631
G1 X104.487 Y105.978 E.06648
G1 X102.851 Y107.321 E.06635
G1 X101.091 Y108.497 E.06637
G1 X99.226 Y109.494 E.06632
G1 X97.27 Y110.305 E.06639
G1 X95.245 Y110.92 E.06637
G1 X93.169 Y111.333 E.06636
G1 X91.063 Y111.541 E.06636
G1 X88.948 Y111.542 E.06632
G1 X86.845 Y111.335 E.06623
G1 X84.775 Y110.925 E.06619
G1 X82.737 Y110.308 E.06675
G1 X80.787 Y109.501 E.06619
G1 X78.924 Y108.506 E.06622
G1 X77.152 Y107.323 E.06679
G1 X75.506 Y105.971 E.06679
G1 X74.016 Y104.48 E.0661
G1 X72.702 Y102.88 E.0649
G1 X71.541 Y101.152 E.06528
G1 X70.541 Y99.3 E.06601
G1 X69.711 Y97.317 E.06739
G1 X69.089 Y95.28 E.06677
G1 X68.67 Y93.192 E.06677
G1 X68.459 Y91.074 E.06674
G1 X68.459 Y88.935 E.06709
G1 X68.667 Y86.83 E.0663
G1 X69.081 Y84.753 E.06642
G1 X69.696 Y82.726 E.06641
G1 X70.507 Y80.77 E.0664
G1 X71.507 Y78.902 E.06643
G1 X72.683 Y77.144 E.06631
G1 X74.025 Y75.51 E.06631
G1 X74.642 Y74.894 E.02733
M204 P1000
G1 X74.908 Y75.16 F9000
M204 P800
G1 F1200
G1 X75.77 Y74.298 E.03822
G1 X77.379 Y72.978 E.06523
G1 X79.104 Y71.825 E.06507
G1 X80.938 Y70.845 E.06518
G1 X82.861 Y70.049 E.06527
G1 X84.851 Y69.445 E.06522
G1 X86.894 Y69.038 E.06531
G1 X88.966 Y68.835 E.06529
G1 X91.034 Y68.835 E.06482
G1 X92.755 Y68.992 E.05418
G1 X94.767 Y69.353 E.0641
G1 X96.798 Y69.93 E.06621
G1 X98.763 Y70.706 E.06623
G1 X100.64 Y71.675 E.06623
G1 X102.412 Y72.825 E.06624
G1 X104.061 Y74.147 E.06624
G1 X105.569 Y75.625 E.06623
G1 X106.923 Y77.246 E.06622
G1 X108.098 Y78.978 E.06562
G1 X109.098 Y80.818 E.06564
G1 X109.917 Y82.765 E.06623
G1 X110.534 Y84.765 E.06563
G1 X110.953 Y86.835 E.06622
G1 X111.164 Y88.935 E.06618
G1 X111.165 Y91.038 E.06593
G1 X110.961 Y93.106 E.06516
G1 X110.556 Y95.148 E.06528
G1 X109.951 Y97.14 E.06526
G1 X109.155 Y99.063 E.06527
G1 X108.174 Y100.897 E.06523
G1 X107.018 Y102.626 E.06519
G1 X105.7 Y104.232 E.06515
G1 X104.227 Y105.705 E.06532
G1 X102.619 Y107.023 E.06519
G1 X100.89 Y108.178 E.06521
G1 X99.057 Y109.157 E.06516
G1 X97.135 Y109.953 E.06523
G1 X95.144 Y110.556 E.06521
G1 X93.104 Y110.962 E.0652
G1 X91.035 Y111.165 E.0652
G1 X88.957 Y111.165 E.06516
G1 X86.892 Y110.961 E.06507
G1 X84.857 Y110.557 E.06503
G1 X82.856 Y109.95 E.06559
G1 X80.94 Y109.156 E.06502
G1 X79.11 Y108.178 E.06506
G1 X77.37 Y107.015 E.06562
G1 X75.753 Y105.686 E.06563
G1 X74.289 Y104.22 E.06494
G1 X73 Y102.648 E.06376
G1 X71.868 Y100.965 E.06359
G1 X70.885 Y99.145 E.06484
G1 X70.069 Y97.197 E.06622
G1 X69.457 Y95.197 E.0656
G1 X69.044 Y93.146 E.0656
G1 X68.836 Y91.065 E.06557
G1 X68.835 Y88.962 E.06592
G1 X69.038 Y86.895 E.06514
G1 X69.444 Y84.853 E.06525
M73 P1 R61
G1 X70.048 Y82.862 E.06525
G1 X70.844 Y80.94 E.06524
G1 X71.826 Y79.104 E.06527
G1 X72.98 Y77.376 E.06515
G1 X74.298 Y75.77 E.06515
G1 X74.866 Y75.203 E.02516
M204 P1000
G1 X75.132 Y75.469 F9000
M204 P800
G1 F1200
G1 X76.03 Y74.572 E.03981
G1 X77.61 Y73.276 E.06407
G1 X79.306 Y72.144 E.06391
G1 X81.107 Y71.182 E.06402
G1 X82.996 Y70.401 E.06411
G1 X84.952 Y69.808 E.06406
G1 X86.958 Y69.41 E.06415
G1 X88.994 Y69.211 E.06413
G1 X91.025 Y69.212 E.06369
G1 X92.696 Y69.364 E.05262
G1 X94.673 Y69.718 E.06297
G1 X96.669 Y70.284 E.06504
G1 X98.599 Y71.046 E.06506
G1 X100.443 Y71.996 E.06506
G1 X102.184 Y73.126 E.06506
G1 X103.803 Y74.423 E.06506
G1 X105.286 Y75.874 E.06506
G1 X106.616 Y77.466 E.06504
G1 X107.771 Y79.166 E.06445
G1 X108.762 Y80.989 E.06505
G1 X109.566 Y82.902 E.06505
G1 X110.17 Y84.867 E.06446
G1 X110.581 Y86.9 E.06505
G1 X110.787 Y88.963 E.065
G1 X110.788 Y91.028 E.06476
G1 X110.587 Y93.059 E.06399
G1 X110.188 Y95.065 E.06412
G1 X109.593 Y97.021 E.0641
G1 X108.81 Y98.91 E.0641
G1 X107.846 Y100.711 E.06407
G1 X106.71 Y102.408 E.06403
G1 X105.414 Y103.985 E.06399
G1 X103.967 Y105.431 E.06415
G1 X102.387 Y106.726 E.06403
G1 X100.688 Y107.859 E.06405
G1 X98.887 Y108.82 E.064
G1 X96.999 Y109.601 E.06407
G1 X95.044 Y110.193 E.06405
G1 X93.04 Y110.59 E.06404
G1 X91.008 Y110.789 E.06404
G1 X88.967 Y110.788 E.064
G1 X86.938 Y110.587 E.06391
G1 X84.94 Y110.189 E.06387
G1 X82.974 Y109.592 E.06443
G1 X81.093 Y108.811 E.06386
G1 X79.296 Y107.85 E.0639
G1 X77.587 Y106.707 E.06446
G1 X75.999 Y105.4 E.06446
G1 X74.563 Y103.96 E.06378
G1 X73.307 Y102.43 E.06206
G1 X72.196 Y100.777 E.06246
G1 X71.229 Y98.991 E.06368
G1 X70.427 Y97.078 E.06504
G1 X69.82 Y95.095 E.06501
G1 X69.416 Y93.081 E.06443
G1 X69.213 Y91.037 E.0644
G1 X69.212 Y88.972 E.06475
G1 X69.413 Y86.941 E.06397
G1 X69.812 Y84.936 E.0641
G1 X70.406 Y82.981 E.06409
G1 X71.189 Y81.093 E.06408
G1 X72.154 Y79.29 E.06411
G1 X73.288 Y77.594 E.06399
G1 X74.584 Y76.017 E.06399
G1 X75.09 Y75.511 E.02241
M204 P1000
G1 X75.356 Y75.778 F9000
M204 P800
G1 F1200
G1 X76.277 Y74.857 E.04082
G1 X77.828 Y73.584 E.06291
G1 X79.492 Y72.472 E.06276
G1 X81.26 Y71.527 E.06286
G1 X83.115 Y70.759 E.06295
G1 X85.034 Y70.176 E.0629
G1 X87.005 Y69.785 E.06299
G1 X89.003 Y69.588 E.06297
G1 X91 Y69.588 E.06259
G1 X92.638 Y69.737 E.05159
G1 X94.58 Y70.084 E.06184
G1 X96.539 Y70.638 E.06386
G1 X98.435 Y71.386 E.06388
G1 X100.246 Y72.318 E.06388
G1 X101.956 Y73.426 E.06388
G1 X103.547 Y74.699 E.06388
G1 X105.003 Y76.124 E.06388
G1 X106.31 Y77.686 E.06387
G1 X107.445 Y79.355 E.06328
G1 X108.418 Y81.144 E.06387
G1 X109.208 Y83.022 E.06388
G1 X109.803 Y84.951 E.06329
G1 X110.207 Y86.948 E.06387
G1 X110.41 Y88.973 E.06382
G1 X110.412 Y91.001 E.06359
G1 X110.215 Y92.995 E.06283
G1 X109.824 Y94.965 E.06296
G1 X109.241 Y96.885 E.06294
G1 X108.473 Y98.74 E.06294
G1 X107.527 Y100.509 E.06291
G1 X106.413 Y102.176 E.06287
G1 X105.141 Y103.725 E.06283
G1 X103.72 Y105.146 E.06299
G1 X102.17 Y106.417 E.06287
G1 X100.502 Y107.531 E.06289
G1 X98.734 Y108.476 E.06284
G1 X96.881 Y109.243 E.06291
G1 X94.961 Y109.825 E.06289
G1 X92.994 Y110.216 E.06288
G1 X90.998 Y110.412 E.06288
G1 X88.994 Y110.411 E.06284
G1 X87.002 Y110.215 E.06275
G1 X85.041 Y109.825 E.06271
G1 X83.11 Y109.24 E.06326
G1 X81.262 Y108.474 E.0627
G1 X79.498 Y107.531 E.06274
G1 X77.819 Y106.409 E.06329
G1 X76.26 Y105.127 E.0633
G1 X74.848 Y103.714 E.06263
G1 X73.615 Y102.212 E.06093
G1 X72.523 Y100.589 E.06132
G1 X71.573 Y98.836 E.06252
G1 X70.785 Y96.958 E.06387
G1 X70.188 Y95.012 E.06383
G1 X69.79 Y93.034 E.06326
G1 X69.59 Y91.027 E.06323
G1 X69.588 Y88.999 E.06358
G1 X69.784 Y87.005 E.06281
G1 X70.176 Y85.037 E.06293
G1 X70.758 Y83.116 E.06293
G1 X71.526 Y81.262 E.06292
G1 X72.472 Y79.492 E.06295
G1 X73.586 Y77.826 E.06283
G1 X74.857 Y76.277 E.06283
G1 X75.314 Y75.82 E.02024
M204 P1000
G1 X75.58 Y76.087 F9000
M204 P800
G1 F1200
G1 X76.523 Y75.143 E.04184
G1 X78.045 Y73.893 E.06175
G1 X79.678 Y72.8 E.0616
G1 X81.413 Y71.872 E.0617
G1 X83.233 Y71.117 E.06178
G1 X85.117 Y70.544 E.06174
G1 X87.051 Y70.159 E.06183
G1 X89.013 Y69.965 E.06181
G1 X90.974 Y69.964 E.0615
G1 X92.58 Y70.11 E.05056
G1 X94.486 Y70.449 E.0607
G1 X96.41 Y70.993 E.06268
G1 X98.271 Y71.725 E.0627
G1 X100.049 Y72.64 E.0627
G1 X101.728 Y73.726 E.0627
G1 X103.29 Y74.975 E.0627
G1 X104.72 Y76.373 E.0627
G1 X106.003 Y77.906 E.06269
G1 X107.118 Y79.543 E.0621
G1 X108.074 Y81.3 E.0627
G1 X108.851 Y83.142 E.0627
M73 P1 R60
G1 X109.435 Y85.035 E.06211
G1 X109.833 Y86.995 E.06269
G1 X110.033 Y88.983 E.06265
G1 X110.036 Y90.973 E.06242
G1 X109.844 Y92.931 E.06167
G1 X109.46 Y94.864 E.06179
G1 X108.889 Y96.75 E.06178
G1 X108.136 Y98.571 E.06178
G1 X107.208 Y100.308 E.06175
G1 X106.115 Y101.944 E.06171
G1 X104.868 Y103.465 E.06167
G1 X103.474 Y104.86 E.06183
G1 X101.953 Y106.109 E.06171
G1 X100.316 Y107.203 E.06173
G1 X98.581 Y108.131 E.06168
G1 X96.762 Y108.885 E.06174
G1 X94.878 Y109.457 E.06173
G1 X92.948 Y109.841 E.06172
G1 X90.989 Y110.035 E.06172
G1 X89.022 Y110.035 E.06168
G1 X87.067 Y109.843 E.06159
G1 X85.141 Y109.462 E.06155
G1 X83.245 Y108.888 E.0621
G1 X81.432 Y108.137 E.06155
G1 X79.699 Y107.212 E.06158
G1 X78.051 Y106.112 E.06213
G1 X76.52 Y104.854 E.06213
G1 X75.134 Y103.467 E.06148
G1 X73.923 Y101.994 E.0598
G1 X72.85 Y100.402 E.06019
G1 X71.917 Y98.681 E.06136
G1 X71.142 Y96.838 E.06269
G1 X70.556 Y94.928 E.06266
G1 X70.164 Y92.987 E.06209
G1 X69.967 Y91.017 E.06206
G1 X69.964 Y89.027 E.06242
G1 X70.156 Y87.07 E.06165
G1 X70.539 Y85.137 E.06177
G1 X71.11 Y83.252 E.06177
G1 X71.863 Y81.432 E.06175
G1 X72.791 Y79.693 E.06179
G1 X73.883 Y78.057 E.06167
G1 X75.131 Y76.537 E.06167
G1 X75.538 Y76.129 E.01806
M204 P1000
G1 X75.804 Y76.395 F9000
M204 P800
G1 F1200
G1 X76.783 Y75.416 E.04342
G1 X78.277 Y74.19 E.06059
G1 X79.88 Y73.119 E.06044
G1 X81.583 Y72.209 E.06054
G1 X83.369 Y71.469 E.06062
G1 X85.218 Y70.908 E.06057
G1 X87.115 Y70.531 E.06067
G1 X89.04 Y70.341 E.06065
G1 X90.966 Y70.341 E.06037
G1 X92.522 Y70.482 E.04901
G1 X94.393 Y70.814 E.05957
G1 X96.281 Y71.347 E.0615
G1 X98.107 Y72.065 E.06152
G1 X99.852 Y72.961 E.06152
G1 X101.5 Y74.027 E.06152
G1 X103.033 Y75.251 E.06152
G1 X104.437 Y76.622 E.06152
G1 X105.697 Y78.126 E.06152
G1 X106.791 Y79.732 E.06093
G1 X107.73 Y81.455 E.06152
G1 X108.493 Y83.263 E.06152
G1 X109.072 Y85.137 E.06152
G1 X109.461 Y87.06 E.06151
G1 X109.657 Y89.011 E.06147
G1 X109.658 Y90.964 E.06124
G1 X109.469 Y92.885 E.0605
G1 X109.092 Y94.781 E.06064
G1 X108.531 Y96.631 E.06062
G1 X107.791 Y98.418 E.06062
G1 X106.88 Y100.122 E.06059
G1 X105.807 Y101.727 E.06055
G1 X104.582 Y103.219 E.06051
G1 X103.214 Y104.587 E.06067
G1 X101.721 Y105.812 E.06055
G1 X100.114 Y106.884 E.06057
G1 X98.412 Y107.794 E.06052
G1 X96.627 Y108.533 E.06058
G1 X94.778 Y109.093 E.06057
G1 X92.883 Y109.47 E.06056
G1 X90.961 Y109.659 E.06056
G1 X89.031 Y109.658 E.06052
G1 X87.113 Y109.469 E.06044
G1 X85.224 Y109.094 E.06039
G1 X83.364 Y108.53 E.06094
G1 X81.585 Y107.792 E.06039
G1 X79.885 Y106.884 E.06042
G1 X78.269 Y105.804 E.06096
G1 X76.766 Y104.569 E.06097
G1 X75.407 Y103.207 E.06032
G1 X74.22 Y101.761 E.05867
G1 X73.177 Y100.214 E.05851
G1 X72.261 Y98.527 E.06019
G1 X71.5 Y96.718 E.06151
G1 X70.923 Y94.844 E.06148
G1 X70.539 Y92.94 E.06092
G1 X70.343 Y90.989 E.06147
G1 X70.342 Y89.036 E.06124
G1 X70.531 Y87.116 E.06049
G1 X70.907 Y85.22 E.06061
G1 X71.468 Y83.37 E.0606
G1 X72.208 Y81.585 E.06059
G1 X73.119 Y79.879 E.06063
G1 X74.192 Y78.275 E.06051
G1 X75.416 Y76.783 E.06051
G1 X75.761 Y76.438 E.01532
M204 P1000
G1 X76.028 Y76.704 F9000
M204 P800
G1 F1200
G1 X77.03 Y75.701 E.04444
G1 X78.494 Y74.498 E.05943
G1 X80.066 Y73.447 E.05928
G1 X81.736 Y72.553 E.05938
G1 X83.487 Y71.827 E.05946
G1 X85.3 Y71.276 E.05941
G1 X87.162 Y70.905 E.0595
G1 X89.05 Y70.718 E.05949
G1 X90.94 Y70.718 E.05928
G1 X92.464 Y70.855 E.04798
G1 X94.3 Y71.18 E.05844
G1 X96.152 Y71.701 E.06033
G1 X97.943 Y72.405 E.06034
G1 X99.656 Y73.283 E.06034
G1 X101.272 Y74.328 E.06034
G1 X102.777 Y75.528 E.06034
G1 X104.154 Y76.872 E.06034
G1 X105.391 Y78.347 E.06035
G1 X106.465 Y79.921 E.05976
G1 X107.387 Y81.61 E.06034
G1 X108.136 Y83.383 E.06034
G1 X108.704 Y85.222 E.06034
G1 X109.087 Y87.108 E.06034
G1 X109.28 Y89.021 E.0603
G1 X109.282 Y90.937 E.06007
G1 X109.098 Y92.821 E.05934
G1 X108.729 Y94.681 E.05947
G1 X108.179 Y96.496 E.05945
G1 X107.454 Y98.248 E.05946
G1 X106.561 Y99.92 E.05943
G1 X105.509 Y101.495 E.05939
G1 X104.309 Y102.959 E.05935
G1 X102.967 Y104.301 E.05951
G1 X101.503 Y105.503 E.05939
G1 X99.928 Y106.556 E.05941
G1 X98.259 Y107.449 E.05936
G1 X96.508 Y108.175 E.05942
G1 X94.695 Y108.725 E.05941
G1 X92.837 Y109.095 E.0594
G1 X90.952 Y109.281 E.0594
G1 X89.059 Y109.282 E.05936
G1 X87.177 Y109.097 E.05928
G1 X85.324 Y108.73 E.05923
G1 X83.499 Y108.178 E.05978
G1 X81.754 Y107.455 E.05923
G1 X80.087 Y106.565 E.05926
G1 X78.501 Y105.506 E.0598
G1 X77.027 Y104.296 E.0598
G1 X75.693 Y102.961 E.05917
G1 X74.527 Y101.543 E.05754
